(Project bricks_n_tunnel.cut)
(Created by Estlcam version 11 build 11.245)
(Machining time about 00:04:34 hours)

(Required tools:)
(1/8")
G21
G90
G94
M03 S24000
G00 X0.0000 Y0.0000 Z0.0000 F4000
G00 Z8.0000 F


(No. 1: Hole 3)
G00 X74.6100 Y48.2671 F4000
G00 Z0.5000 F
G01 Z0.0000 F240 S24000
G01 Y42.2671 Z-3.0000
G01 Y48.2671 Z-6.0000
G01 Y1.5900 F1200
G01 X-74.6100
G01 Y48.2671
G01 Y55.4471
G01 Y149.3468
G02 X-74.4914 Y156.5245 I98.2911 J1.9656
G02 X-2.7754 Y226.9546 I74.4809 J-4.1131
G02 X4.4012 Y226.8763 I2.8105 J-71.3399
G02 X74.3832 Y158.1543 I-4.3900 J-74.4642
G02 X74.6100 Y150.9803 I-80.0410 J-6.1205
G01 Y55.4471
G01 Y48.2671
G01 Y42.2671 Z-9.0000 F240
G01 Y48.2671 Z-12.0000
G01 Y1.5900 F1200
G01 X-74.6100
G01 Y48.2671
G01 Y55.4471
G01 Y149.3468
G02 X-74.4914 Y156.5245 I98.2911 J1.9656
G02 X-2.7754 Y226.9546 I74.4809 J-4.1131
G02 X4.4012 Y226.8763 I2.8105 J-71.3399
G02 X74.3832 Y158.1543 I-4.3900 J-74.4642
G02 X74.6100 Y150.9803 I-80.0410 J-6.1205
G01 Y55.4471
G01 Y48.2671
G01 Y42.2671 Z-15.0000 F240
G01 Y48.2671 Z-18.0000
G01 Y1.5900 F1200
G01 X-74.6100
G01 Y48.2671
G00 Z-16.0000 F
G01 Y55.4471 F1200
G01 Y57.4471 Z-17.0000 F240
G01 Y55.4471 Z-18.0000
G01 Y149.3468 F1200
G00 Z-16.0000 F
G02 X-74.4914 Y156.5245 I98.2911 J1.9656 F1200
G02 X-74.3544 Y158.5198 Z-17.0000 I74.4809 J-4.1131 F240
G03 X-74.4914 Y156.5245 Z-18.0000 I74.3439 J-6.1083
G02 X-2.7754 Y226.9546 I74.4809 J-4.1131 F1200
G00 Z-16.0000 F
G02 X4.4012 Y226.8763 I2.8105 J-71.3399 F1200
G02 X6.3959 Y226.7318 Z-17.0000 I-4.3900 J-74.4642 F240
G03 X4.4012 Y226.8763 Z-18.0000 I-6.3848 J-74.3197
G02 X74.3832 Y158.1543 I-4.3900 J-74.4642 F1200
G00 Z-16.0000 F
G02 X74.6100 Y150.9803 I-80.0410 J-6.1205 F1200
G01 Y148.9803 Z-17.0000 F240
G01 Y150.9803 Z-18.0000
G01 Y55.4471 F1200
G00 Z-16.0000 F
G01 Y48.2671 F1200
G00 Z-17.5000 F
G01 Z-18.0000 F240
G01 Y46.2671 Z-19.0000
G01 Y48.2671 Z-20.0000
G01 Y1.5900 F1200
G01 X-74.6100
G01 Y48.2671
G00 Z-16.0000 F
G01 Y55.4471 F1200
G00 Z-17.5000 F
G01 Z-18.0000 F240
G01 Y57.4471 Z-19.0000
G01 Y55.4471 Z-20.0000
G01 Y149.3468 F1200
G00 Z-16.0000 F
G02 X-74.4914 Y156.5245 I98.2911 J1.9656 F1200
G00 Z-17.5000 F
G01 Z-18.0000 F240
G02 X-74.3544 Y158.5198 Z-19.0000 I74.4809 J-4.1131
G03 X-74.4914 Y156.5245 Z-20.0000 I74.3439 J-6.1083
G02 X-2.7754 Y226.9546 I74.4809 J-4.1131 F1200
G00 Z-16.0000 F
G02 X4.4012 Y226.8763 I2.8105 J-71.3399 F1200
G00 Z-17.5000 F
G01 Z-18.0000 F240
G02 X6.3959 Y226.7318 Z-19.0000 I-4.3900 J-74.4642
G03 X4.4012 Y226.8763 Z-20.0000 I-6.3848 J-74.3197
G02 X74.3832 Y158.1543 I-4.3900 J-74.4642 F1200
G00 Z-16.0000 F
G02 X74.6100 Y150.9803 I-80.0410 J-6.1205 F1200
G00 Z-17.5000 F
G01 Z-18.0000 F240
G01 Y148.9803 Z-19.0000
G01 Y150.9803 Z-20.0000
G01 Y55.4471 F1200
G00 Z-16.0000 F
G01 Y48.2671 F1200
G00 Z8.0000 F
G00 X0.0000 Y0.0000 F4000

M05
M30
