(Project bricks_n_tunnel.carve)
(Created by Estlcam version 11 build 11.245)
(Machining time about 01:18:12 hours)

(Required tools:)
(1/8")
G21
G90
G94
M03 S24000
G00 X0.0000 Y0.0000 Z0.0000 F4000
G00 Z8.0000 F


(No. 1: Engraving 549)
G00 X-76.1765 Y15.5516 F4000
G00 Z0.5000 F
G01 Z0.0000 F240 S24000
G01 Z-1.0000
G01 Y28.2516 F2400
G01 X-101.5765
G00 Z8.0000 F


(No. 2: Engraving 500)
G00 X-88.8765 Y28.2516 Z8.0000 F4000
G00 Z0.5000 F
G01 Z0.0000 F240
G01 Z-1.0000
G01 Y40.9516 F2400
G00 Z8.0000 F


(No. 3: Engraving 499)
G00 X-101.5765 Y40.9516 Z8.0000 F4000
G00 Z0.5000 F
G01 Z0.0000 F240
G01 Z-1.0000
G01 Y53.6516 F2400
G01 X-126.9765
G00 Z8.0000 F


(No. 4: Engraving 449)
G00 X-126.9765 Y66.3516 Z8.0000 F4000
G00 Z0.5000 F
G01 Z0.0000 F240
G01 Z-1.0000
G01 Y79.0516 F2400
G01 X-152.3765
G00 Z8.0000 F


(No. 5: Engraving 398)
G00 X-165.0765 Y79.0516 Z8.0000 F4000
G00 Z0.5000 F
G01 Z0.0000 F240
G01 Z-1.0000
G01 Y91.7516 F2400
G00 Z8.0000 F


(No. 6: Engraving 399)
G00 X-152.3765 Y91.7516 Z8.0000 F4000
G00 Z0.5000 F
G01 Z0.0000 F240
G01 Z-1.0000
G01 Y104.4516 F2400
G01 X-177.7765
G00 Z8.0000 F


(No. 7: Engraving 348)
G00 X-190.4765 Y104.4516 Z8.0000 F4000
G00 Z0.5000 F
G01 Z0.0000 F240
G01 Z-1.0000
G01 Y117.1516 F2400
G00 Z8.0000 F


(No. 8: Engraving 349)
G00 X-177.7765 Y117.1516 Z8.0000 F4000
G00 Z0.5000 F
G01 Z0.0000 F240
G01 Z-1.0000
G01 Y129.8516 F2400
G01 X-203.1765
G00 Z8.0000 F


(No. 9: Engraving 299)
G00 X-203.1765 Y142.5516 Z8.0000 F4000
G00 Z0.5000 F
G01 Z0.0000 F240
G01 Z-1.0000
G01 Y155.2516 F2400
G01 X-228.5765
G00 Z8.0000 F


(No. 10: Engraving 48)
G00 X-241.2765 Y155.2516 Z8.0000 F4000
G00 Z0.5000 F
G01 Z0.0000 F240
G01 Z-1.0000
G01 Y167.9516 F2400
G00 Z8.0000 F


(No. 11: Engraving 47)
G00 X-253.9765 Y167.9516 Z8.0000 F4000
G00 Z0.5000 F
G01 Z0.0000 F240
G01 Z-1.0000
G01 Y180.6516 F2400
G01 X-279.3765
G00 Z8.0000 F


(No. 12: Engraving 37)
G00 X-279.3765 Y193.3516 Z8.0000 F4000
G00 Z0.5000 F
G01 Z0.0000 F240
G01 Z-1.0000
G01 Y206.0516 F2400
G01 X-304.7765
G00 Z8.0000 F


(No. 13: Engraving 28)
G00 X-292.0765 Y206.0516 Z8.0000 F4000
G00 Z0.5000 F
G01 Z0.0000 F240
G01 Z-1.0000
G01 Y218.7516 F2400
G00 Z8.0000 F


(No. 14: Engraving 29)
G00 X-279.3765 Y218.7516 Z8.0000 F4000
G00 Z0.5000 F
G01 Z0.0000 F240
G01 Z-1.0000
G01 Y231.4516 F2400
G01 X-304.7765
G00 Z8.0000 F


(No. 15: Engraving 20)
G00 X-292.0765 Y231.4516 Z8.0000 F4000
G00 Z0.5000 F
G01 Z0.0000 F240
G01 Z-1.0000
G01 Y244.1516 F2400
G00 Z8.0000 F


(No. 16: Engraving 12)
G00 X-292.0765 Y256.8516 Z8.0000 F4000
G00 Z0.5000 F
G01 Z0.0000 F240
G01 Z-1.0000
G01 Y269.5516 F2400
G00 Z8.0000 F


(No. 17: Engraving 4)
G00 X-292.0765 Y282.2516 Z8.0000 F4000
G00 Z0.5000 F
G01 Z0.0000 F240
G01 Z-1.0000
G01 Y294.9516 F2400
G00 Z8.0000 F


(No. 18: Engraving 5)
G00 X-279.3765 Y294.9516 Z8.0000 F4000
G00 Z0.5000 F
G01 Z0.0000 F240
G01 Z-1.0000
G01 Y307.6516 F2400
G01 X-304.7765
G00 Z8.0000 F


(No. 19: Engraving 1)
G00 X-330.1765 Y307.6516 Z8.0000 F4000
G00 Z0.5000 F
G01 Z0.0000 F240
G01 Z-1.0000
G01 X-304.7765 F2400
G01 Y294.9516
G01 X-330.1765
G01 Y307.6516
G00 Z8.0000 F


(No. 20: Engraving 2)
G00 X-317.4765 Y282.2516 Z8.0000 F4000
G00 Z0.5000 F
G01 Z0.0000 F240
G01 Z-1.0000
G01 Y294.9516 F2400
G00 Z8.0000 F


(No. 21: Engraving 11)
G00 X-317.4765 Y256.8516 Z8.0000 F4000
G00 Z0.5000 F
G01 Z0.0000 F240
G01 Z-1.0000
G01 Y269.5516 F2400
G00 Z8.0000 F


(No. 22: Engraving 13)
G00 X-279.3765 Y269.5516 Z8.0000 F4000
G00 Z0.5000 F
G01 Z0.0000 F240
G01 Z-1.0000
G01 Y282.2516 F2400
G01 X-304.7765
G00 Z8.0000 F


(No. 23: Engraving 6)
G00 X-266.6765 Y282.2516 Z8.0000 F4000
G00 Z0.5000 F
G01 Z0.0000 F240
G01 Z-1.0000
G01 Y294.9516 F2400
G00 Z8.0000 F


(No. 24: Engraving 7)
G00 X-253.9765 Y294.9516 Z8.0000 F4000
G00 Z0.5000 F
G01 Z0.0000 F240
G01 Z-1.0000
G01 Y307.6516 F2400
G01 X-279.3765
G00 Z8.0000 F


(No. 25: Engraving 8)
G00 X-241.2765 Y282.2516 Z8.0000 F4000
G00 Z0.5000 F
G01 Z0.0000 F240
G01 Z-1.0000
G01 Y294.9516 F2400
G00 Z8.0000 F


(No. 26: Engraving 9)
G00 X-228.5765 Y294.9516 Z8.0000 F4000
G00 Z0.5000 F
G01 Z0.0000 F240
G01 Z-1.0000
G01 Y307.6516 F2400
G01 X-253.9765
G00 Z8.0000 F


(No. 27: Engraving 15)
G00 X-253.9765 Y269.5516 Z8.0000 F4000
G00 Z0.5000 F
G01 Z0.0000 F240
G01 Z-1.0000
G01 Y282.2516 F2400
G01 X-279.3765
G00 Z8.0000 F


(No. 28: Engraving 14)
G00 X-266.6765 Y256.8516 Z8.0000 F4000
G00 Z0.5000 F
G01 Z0.0000 F240
G01 Z-1.0000
G01 Y269.5516 F2400
G00 Z8.0000 F


(No. 29: Engraving 16)
G00 X-241.2765 Y256.8516 Z8.0000 F4000
G00 Z0.5000 F
G01 Z0.0000 F240
G01 Z-1.0000
G01 Y269.5516 F2400
G00 Z8.0000 F


(No. 30: Engraving 17)
G00 X-228.5765 Y269.5516 Z8.0000 F4000
G00 Z0.5000 F
G01 Z0.0000 F240
G01 Z-1.0000
G01 Y282.2516 F2400
G01 X-253.9765
G00 Z8.0000 F


(No. 31: Engraving 50)
G00 X-215.8765 Y282.2516 Z8.0000 F4000
G00 Z0.5000 F
G01 Z0.0000 F240
G01 Z-1.0000
G01 Y294.9516 F2400
G00 Z8.0000 F


(No. 32: Engraving 51)
G00 X-203.1765 Y294.9516 Z8.0000 F4000
G00 Z0.5000 F
G01 Z0.0000 F240
G01 Z-1.0000
G01 Y307.6516 F2400
G01 X-228.5765
G00 Z8.0000 F


(No. 33: Engraving 55)
G00 X-203.1765 Y269.5516 Z8.0000 F4000
G00 Z0.5000 F
G01 Z0.0000 F240
G01 Z-1.0000
G01 Y282.2516 F2400
G01 X-228.5765
G00 Z8.0000 F


(No. 34: Engraving 54)
G00 X-215.8765 Y256.8516 Z8.0000 F4000
G00 Z0.5000 F
G01 Z0.0000 F240
G01 Z-1.0000
G01 Y269.5516 F2400
G00 Z8.0000 F


(No. 35: Engraving 25)
G00 X-228.5765 Y244.1516 Z8.0000 F4000
G00 Z0.5000 F
G01 Z0.0000 F240
G01 Z-1.0000
G01 Y256.8516 F2400
G01 X-253.9765
G00 Z8.0000 F


(No. 36: Engraving 23)
G00 X-253.9765 Y244.1516 Z8.0000 F4000
G00 Z0.5000 F
G01 Z0.0000 F240
G01 Z-1.0000
G01 Y256.8516 F2400
G01 X-279.3765
G00 Z8.0000 F


(No. 37: Engraving 21)
G00 X-279.3765 Y244.1516 Z8.0000 F4000
G00 Z0.5000 F
G01 Z0.0000 F240
G01 Z-1.0000
G01 Y256.8516 F2400
G01 X-304.7765
G00 Z8.0000 F


(No. 38: Engraving 19)
G00 X-317.4765 Y231.4516 Z8.0000 F4000
G00 Z0.5000 F
G01 Z0.0000 F240
G01 Z-1.0000
G01 Y244.1516 F2400
G00 Z8.0000 F


(No. 39: Engraving 27)
G00 X-317.4765 Y206.0516 Z8.0000 F4000
G00 Z0.5000 F
G01 Z0.0000 F240
G01 Z-1.0000
G01 Y218.7516 F2400
G00 Z8.0000 F


(No. 40: Engraving 35)
G00 X-317.4765 Y180.6516 Z8.0000 F4000
G00 Z0.5000 F
G01 Z0.0000 F240
G01 Z-1.0000
G01 Y193.3516 F2400
G00 Z8.0000 F


(No. 41: Engraving 36)
G00 X-292.0765 Y180.6516 Z8.0000 F4000
G00 Z0.5000 F
G01 Z0.0000 F240
G01 Z-1.0000
G01 Y193.3516 F2400
G00 Z8.0000 F


(No. 42: Engraving 38)
G00 X-266.6765 Y180.6516 Z8.0000 F4000
G00 Z0.5000 F
G01 Z0.0000 F240
G01 Z-1.0000
G01 Y193.3516 F2400
G00 Z8.0000 F


(No. 43: Engraving 30)
G00 X-266.6765 Y206.0516 Z8.0000 F4000
G00 Z0.5000 F
G01 Z0.0000 F240
G01 Z-1.0000
G01 Y218.7516 F2400
G00 Z8.0000 F


(No. 44: Engraving 22)
G00 X-266.6765 Y231.4516 Z8.0000 F4000
G00 Z0.5000 F
G01 Z0.0000 F240
G01 Z-1.0000
G01 Y244.1516 F2400
G00 Z8.0000 F


(No. 45: Engraving 24)
G00 X-241.2765 Y231.4516 Z8.0000 F4000
G00 Z0.5000 F
G01 Z0.0000 F240
G01 Z-1.0000
G01 Y244.1516 F2400
G00 Z8.0000 F


(No. 46: Engraving 31)
G00 X-253.9765 Y218.7516 Z8.0000 F4000
G00 Z0.5000 F
G01 Z0.0000 F240
G01 Z-1.0000
G01 Y231.4516 F2400
G01 X-279.3765
G00 Z8.0000 F


(No. 47: Engraving 32)
G00 X-241.2765 Y206.0516 Z8.0000 F4000
G00 Z0.5000 F
G01 Z0.0000 F240
G01 Z-1.0000
G01 Y218.7516 F2400
G00 Z8.0000 F


(No. 48: Engraving 33)
G00 X-228.5765 Y218.7516 Z8.0000 F4000
G00 Z0.5000 F
G01 Z0.0000 F240
G01 Z-1.0000
G01 Y231.4516 F2400
G01 X-253.9765
G00 Z8.0000 F


(No. 49: Engraving 58)
G00 X-215.8765 Y231.4516 Z8.0000 F4000
G00 Z0.5000 F
G01 Z0.0000 F240
G01 Z-1.0000
G01 Y244.1516 F2400
G00 Z8.0000 F


(No. 50: Engraving 59)
G00 X-203.1765 Y244.1516 Z8.0000 F4000
G00 Z0.5000 F
G01 Z0.0000 F240
G01 Z-1.0000
G01 Y256.8516 F2400
G01 X-228.5765
G00 Z8.0000 F


(No. 51: Engraving 56)
G00 X-190.4765 Y256.8516 Z8.0000 F4000
G00 Z0.5000 F
G01 Z0.0000 F240
G01 Z-1.0000
G01 Y269.5516 F2400
G00 Z8.0000 F


(No. 52: Engraving 57)
G00 X-177.7765 Y269.5516 Z8.0000 F4000
G00 Z0.5000 F
G01 Z0.0000 F240
G01 Z-1.0000
G01 Y282.2516 F2400
G01 X-203.1765
G00 Z8.0000 F


(No. 53: Engraving 52)
G00 X-190.4765 Y282.2516 Z8.0000 F4000
G00 Z0.5000 F
G01 Z0.0000 F240
G01 Z-1.0000
G01 Y294.9516 F2400
G00 Z8.0000 F


(No. 54: Engraving 53)
G00 X-177.7765 Y294.9516 Z8.0000 F4000
G00 Z0.5000 F
G01 Z0.0000 F240
G01 Z-1.0000
G01 Y307.6516 F2400
G01 X-203.1765
G00 Z8.0000 F


(No. 55: Engraving 74)
G00 X-165.0765 Y282.2516 Z8.0000 F4000
G00 Z0.5000 F
G01 Z0.0000 F240
G01 Z-1.0000
G01 Y294.9516 F2400
G00 Z8.0000 F


(No. 56: Engraving 75)
G00 X-152.3765 Y294.9516 Z8.0000 F4000
G00 Z0.5000 F
G01 Z0.0000 F240
G01 Z-1.0000
G01 Y307.6516 F2400
G01 X-177.7765
G00 Z8.0000 F


(No. 57: Engraving 111)
G00 X-152.3765 Y269.5516 Z8.0000 F4000
G00 Z0.5000 F
G01 Z0.0000 F240
G01 Z-1.0000
G01 Y282.2516 F2400
G01 X-177.7765
G00 Z8.0000 F


(No. 58: Engraving 110)
G00 X-165.0765 Y256.8516 Z8.0000 F4000
G00 Z0.5000 F
G01 Z0.0000 F240
G01 Z-1.0000
G01 Y269.5516 F2400
G00 Z8.0000 F


(No. 59: Engraving 76)
G00 X-139.6765 Y282.2516 Z8.0000 F4000
G00 Z0.5000 F
G01 Z0.0000 F240
G01 Z-1.0000
G01 Y294.9516 F2400
G00 Z8.0000 F


(No. 60: Engraving 77)
G00 X-126.9765 Y294.9516 Z8.0000 F4000
G00 Z0.5000 F
G01 Z0.0000 F240
G01 Z-1.0000
G01 Y307.6516 F2400
G01 X-152.3765
G00 Z8.0000 F


(No. 61: Engraving 78)
G00 X-114.2765 Y282.2516 Z8.0000 F4000
G00 Z0.5000 F
G01 Z0.0000 F240
G01 Z-1.0000
G01 Y294.9516 F2400
G00 Z8.0000 F


(No. 62: Engraving 79)
G00 X-101.5765 Y294.9516 Z8.0000 F4000
G00 Z0.5000 F
G01 Z0.0000 F240
G01 Z-1.0000
G01 Y307.6516 F2400
G01 X-126.9765
G00 Z8.0000 F


(No. 63: Engraving 113)
G00 X-126.9765 Y269.5516 Z8.0000 F4000
G00 Z0.5000 F
G01 Z0.0000 F240
G01 Z-1.0000
G01 Y282.2516 F2400
G01 X-152.3765
G00 Z8.0000 F


(No. 64: Engraving 112)
G00 X-139.6765 Y256.8516 Z8.0000 F4000
G00 Z0.5000 F
G01 Z0.0000 F240
G01 Z-1.0000
G01 Y269.5516 F2400
G00 Z8.0000 F


(No. 65: Engraving 114)
G00 X-114.2765 Y256.8516 Z8.0000 F4000
G00 Z0.5000 F
G01 Z0.0000 F240
G01 Z-1.0000
G01 Y269.5516 F2400
G00 Z8.0000 F


(No. 66: Engraving 115)
G00 X-101.5765 Y269.5516 Z8.0000 F4000
G00 Z0.5000 F
G01 Z0.0000 F240
G01 Z-1.0000
G01 Y282.2516 F2400
G01 X-126.9765
G00 Z8.0000 F


(No. 67: Engraving 80)
G00 X-88.8765 Y282.2516 Z8.0000 F4000
G00 Z0.5000 F
G01 Z0.0000 F240
G01 Z-1.0000
G01 Y294.9516 F2400
G00 Z8.0000 F


(No. 68: Engraving 81)
G00 X-76.1765 Y294.9516 Z8.0000 F4000
G00 Z0.5000 F
G01 Z0.0000 F240
G01 Z-1.0000
G01 Y307.6516 F2400
G01 X-101.5765
G00 Z8.0000 F


(No. 69: Engraving 82)
G00 X-63.4765 Y282.2516 Z8.0000 F4000
G00 Z0.5000 F
G01 Z0.0000 F240
G01 Z-1.0000
G01 Y294.9516 F2400
G00 Z8.0000 F


(No. 70: Engraving 83)
G00 X-50.7765 Y294.9516 Z8.0000 F4000
G00 Z0.5000 F
G01 Z0.0000 F240
G01 Z-1.0000
G01 Y307.6516 F2400
G01 X-76.1765
G00 Z8.0000 F


(No. 71: Engraving 117)
G00 X-76.1765 Y269.5516 Z8.0000 F4000
G00 Z0.5000 F
G01 Z0.0000 F240
G01 Z-1.0000
G01 Y282.2516 F2400
G01 X-101.5765
G00 Z8.0000 F


(No. 72: Engraving 116)
G00 X-88.8765 Y256.8516 Z8.0000 F4000
G00 Z0.5000 F
G01 Z0.0000 F240
G01 Z-1.0000
G01 Y269.5516 F2400
G00 Z8.0000 F


(No. 73: Engraving 118)
G00 X-63.4765 Y256.8516 Z8.0000 F4000
G00 Z0.5000 F
G01 Z0.0000 F240
G01 Z-1.0000
G01 Y269.5516 F2400
G00 Z8.0000 F


(No. 74: Engraving 119)
G00 X-50.7765 Y269.5516 Z8.0000 F4000
G00 Z0.5000 F
G01 Z0.0000 F240
G01 Z-1.0000
G01 Y282.2516 F2400
G01 X-76.1765
G00 Z8.0000 F


(No. 75: Engraving 84)
G00 X-38.0765 Y282.2516 Z8.0000 F4000
G00 Z0.5000 F
G01 Z0.0000 F240
G01 Z-1.0000
G01 Y294.9516 F2400
G00 Z8.0000 F


(No. 76: Engraving 85)
G00 X-25.3765 Y294.9516 Z8.0000 F4000
G00 Z0.5000 F
G01 Z0.0000 F240
G01 Z-1.0000
G01 Y307.6516 F2400
G01 X-50.7765
G00 Z8.0000 F


(No. 77: Engraving 86)
G00 X-12.6765 Y282.2516 Z8.0000 F4000
G00 Z0.5000 F
G01 Z0.0000 F240
G01 Z-1.0000
G01 Y294.9516 F2400
G00 Z8.0000 F


(No. 78: Engraving 87)
G00 X0.0235 Y294.9516 Z8.0000 F4000
G00 Z0.5000 F
G01 Z0.0000 F240
G01 Z-1.0000
G01 Y307.6516 F2400
G01 X-25.3765
G00 Z8.0000 F


(No. 79: Engraving 121)
G00 X-25.3765 Y269.5516 Z8.0000 F4000
G00 Z0.5000 F
G01 Z0.0000 F240
G01 Z-1.0000
G01 Y282.2516 F2400
G01 X-50.7765
G00 Z8.0000 F


(No. 80: Engraving 120)
G00 X-38.0765 Y256.8516 Z8.0000 F4000
G00 Z0.5000 F
G01 Z0.0000 F240
G01 Z-1.0000
G01 Y269.5516 F2400
G00 Z8.0000 F


(No. 81: Engraving 155)
G00 X-50.7765 Y244.1516 Z8.0000 F4000
G00 Z0.5000 F
G01 Z0.0000 F240
G01 Z-1.0000
G01 Y256.8516 F2400
G01 X-76.1765
G00 Z8.0000 F


(No. 82: Engraving 153)
G00 X-76.1765 Y244.1516 Z8.0000 F4000
G00 Z0.5000 F
G01 Z0.0000 F240
G01 Z-1.0000
G01 Y256.8516 F2400
G01 X-101.5765
G00 Z8.0000 F


(No. 83: Engraving 151)
G00 X-101.5765 Y244.1516 Z8.0000 F4000
G00 Z0.5000 F
G01 Z0.0000 F240
G01 Z-1.0000
G01 Y256.8516 F2400
G01 X-126.9765
G00 Z8.0000 F


(No. 84: Engraving 149)
G00 X-126.9765 Y244.1516 Z8.0000 F4000
G00 Z0.5000 F
G01 Z0.0000 F240
G01 Z-1.0000
G01 Y256.8516 F2400
G01 X-152.3765
G00 Z8.0000 F


(No. 85: Engraving 147)
G00 X-152.3765 Y244.1516 Z8.0000 F4000
G00 Z0.5000 F
G01 Z0.0000 F240
G01 Z-1.0000
G01 Y256.8516 F2400
G01 X-177.7765
G00 Z8.0000 F


(No. 86: Engraving 61)
G00 X-177.7765 Y244.1516 Z8.0000 F4000
G00 Z0.5000 F
G01 Z0.0000 F240
G01 Z-1.0000
G01 Y256.8516 F2400
G01 X-203.1765
G00 Z8.0000 F


(No. 87: Engraving 60)
G00 X-190.4765 Y231.4516 Z8.0000 F4000
G00 Z0.5000 F
G01 Z0.0000 F240
G01 Z-1.0000
G01 Y244.1516 F2400
G00 Z8.0000 F


(No. 88: Engraving 146)
G00 X-165.0765 Y231.4516 Z8.0000 F4000
G00 Z0.5000 F
G01 Z0.0000 F240
G01 Z-1.0000
G01 Y244.1516 F2400
G00 Z8.0000 F


(No. 89: Engraving 148)
G00 X-139.6765 Y231.4516 Z8.0000 F4000
G00 Z0.5000 F
G01 Z0.0000 F240
G01 Z-1.0000
G01 Y244.1516 F2400
G00 Z8.0000 F


(No. 90: Engraving 150)
G00 X-114.2765 Y231.4516 Z8.0000 F4000
G00 Z0.5000 F
G01 Z0.0000 F240
G01 Z-1.0000
G01 Y244.1516 F2400
G00 Z8.0000 F


(No. 91: Engraving 152)
G00 X-88.8765 Y231.4516 Z8.0000 F4000
G00 Z0.5000 F
G01 Z0.0000 F240
G01 Z-1.0000
G01 Y244.1516 F2400
G00 Z8.0000 F


(No. 92: Engraving 154)
G00 X-63.4765 Y231.4516 Z8.0000 F4000
G00 Z0.5000 F
G01 Z0.0000 F240
G01 Z-1.0000
G01 Y244.1516 F2400
G00 Z8.0000 F


(No. 93: Engraving 189)
G00 X-76.1765 Y218.7516 Z8.0000 F4000
G00 Z0.5000 F
G01 Z0.0000 F240
G01 Z-1.0000
G01 Y231.4516 F2400
G01 X-101.5765
G00 Z8.0000 F


(No. 94: Engraving 187)
G00 X-101.5765 Y218.7516 Z8.0000 F4000
G00 Z0.5000 F
G01 Z0.0000 F240
G01 Z-1.0000
G01 Y231.4516 F2400
G01 X-126.9765
G00 Z8.0000 F


(No. 95: Engraving 185)
G00 X-126.9765 Y218.7516 Z8.0000 F4000
G00 Z0.5000 F
G01 Z0.0000 F240
G01 Z-1.0000
G01 Y231.4516 F2400
G01 X-152.3765
G00 Z8.0000 F


(No. 96: Engraving 183)
G00 X-152.3765 Y218.7516 Z8.0000 F4000
G00 Z0.5000 F
G01 Z0.0000 F240
G01 Z-1.0000
G01 Y231.4516 F2400
G01 X-177.7765
G00 Z8.0000 F


(No. 97: Engraving 65)
G00 X-177.7765 Y218.7516 Z8.0000 F4000
G00 Z0.5000 F
G01 Z0.0000 F240
G01 Z-1.0000
G01 Y231.4516 F2400
G01 X-203.1765
G00 Z8.0000 F


(No. 98: Engraving 63)
G00 X-203.1765 Y218.7516 Z8.0000 F4000
G00 Z0.5000 F
G01 Z0.0000 F240
G01 Z-1.0000
G01 Y231.4516 F2400
G01 X-228.5765
G00 Z8.0000 F


(No. 99: Engraving 62)
G00 X-215.8765 Y206.0516 Z8.0000 F4000
G00 Z0.5000 F
G01 Z0.0000 F240
G01 Z-1.0000
G01 Y218.7516 F2400
G00 Z8.0000 F


(No. 100: Engraving 41)
G00 X-228.5765 Y193.3516 Z8.0000 F4000
G00 Z0.5000 F
G01 Z0.0000 F240
G01 Z-1.0000
G01 Y206.0516 F2400
G01 X-253.9765
G00 Z8.0000 F


(No. 101: Engraving 39)
G00 X-253.9765 Y193.3516 Z8.0000 F4000
G00 Z0.5000 F
G01 Z0.0000 F240
G01 Z-1.0000
G01 Y206.0516 F2400
G01 X-279.3765
G00 Z8.0000 F


(No. 102: Engraving 45)
G00 X-279.3765 Y167.9516 Z8.0000 F4000
G00 Z0.5000 F
G01 Z0.0000 F240
G01 Z-1.0000
G01 Y180.6516 F2400
G01 X-304.7765
G00 Z8.0000 F


(No. 103: Engraving 44)
G00 X-292.0765 Y155.2516 Z8.0000 F4000
G00 Z0.5000 F
G01 Z0.0000 F240
G01 Z-1.0000
G01 Y167.9516 F2400
G00 Z8.0000 F


(No. 104: Engraving 46)
G00 X-266.6765 Y155.2516 Z8.0000 F4000
G00 Z0.5000 F
G01 Z0.0000 F240
G01 Z-1.0000
G01 Y167.9516 F2400
G00 Z8.0000 F


(No. 105: Engraving 293)
G00 X-279.3765 Y142.5516 Z8.0000 F4000
G00 Z0.5000 F
G01 Z0.0000 F240
G01 Z-1.0000
G01 Y155.2516 F2400
G01 X-304.7765
G00 Z8.0000 F


(No. 106: Engraving 43)
G00 X-317.4765 Y155.2516 Z8.0000 F4000
G00 Z0.5000 F
G01 Z0.0000 F240
G01 Z-1.0000
G01 Y167.9516 F2400
G00 Z8.0000 F


(No. 107: Engraving 291)
G00 X-317.4765 Y129.8516 Z8.0000 F4000
G00 Z0.5000 F
G01 Z0.0000 F240
G01 Z-1.0000
G01 Y142.5516 F2400
G00 Z8.0000 F


(No. 108: Engraving 292)
G00 X-292.0765 Y129.8516 Z8.0000 F4000
G00 Z0.5000 F
G01 Z0.0000 F240
G01 Z-1.0000
G01 Y142.5516 F2400
G00 Z8.0000 F


(No. 109: Engraving 294)
G00 X-266.6765 Y129.8516 Z8.0000 F4000
G00 Z0.5000 F
G01 Z0.0000 F240
G01 Z-1.0000
G01 Y142.5516 F2400
G00 Z8.0000 F


(No. 110: Engraving 295)
G00 X-253.9765 Y142.5516 Z8.0000 F4000
G00 Z0.5000 F
G01 Z0.0000 F240
G01 Z-1.0000
G01 Y155.2516 F2400
G01 X-279.3765
G00 Z8.0000 F


(No. 111: Engraving 341)
G00 X-279.3765 Y117.1516 Z8.0000 F4000
G00 Z0.5000 F
G01 Z0.0000 F240
G01 Z-1.0000
G01 Y129.8516 F2400
G01 X-304.7765
G00 Z8.0000 F


(No. 112: Engraving 340)
G00 X-292.0765 Y104.4516 Z8.0000 F4000
G00 Z0.5000 F
G01 Z0.0000 F240
G01 Z-1.0000
G01 Y117.1516 F2400
G00 Z8.0000 F


(No. 113: Engraving 342)
G00 X-266.6765 Y104.4516 Z8.0000 F4000
G00 Z0.5000 F
G01 Z0.0000 F240
G01 Z-1.0000
G01 Y117.1516 F2400
G00 Z8.0000 F


(No. 114: Engraving 343)
G00 X-253.9765 Y117.1516 Z8.0000 F4000
G00 Z0.5000 F
G01 Z0.0000 F240
G01 Z-1.0000
G01 Y129.8516 F2400
G01 X-279.3765
G00 Z8.0000 F


(No. 115: Engraving 296)
G00 X-241.2765 Y129.8516 Z8.0000 F4000
G00 Z0.5000 F
G01 Z0.0000 F240
G01 Z-1.0000
G01 Y142.5516 F2400
G00 Z8.0000 F


(No. 116: Engraving 297)
G00 X-228.5765 Y142.5516 Z8.0000 F4000
G00 Z0.5000 F
G01 Z0.0000 F240
G01 Z-1.0000
G01 Y155.2516 F2400
G01 X-253.9765
G00 Z8.0000 F


(No. 117: Engraving 49)
G00 X-228.5765 Y167.9516 Z8.0000 F4000
G00 Z0.5000 F
G01 Z0.0000 F240
G01 Z-1.0000
G01 Y180.6516 F2400
G01 X-253.9765
G00 Z8.0000 F


(No. 118: Engraving 40)
G00 X-241.2765 Y180.6516 Z8.0000 F4000
G00 Z0.5000 F
G01 Z0.0000 F240
G01 Z-1.0000
G01 Y193.3516 F2400
G00 Z8.0000 F


(No. 119: Engraving 66)
G00 X-215.8765 Y180.6516 Z8.0000 F4000
G00 Z0.5000 F
G01 Z0.0000 F240
G01 Z-1.0000
G01 Y193.3516 F2400
G00 Z8.0000 F


(No. 120: Engraving 67)
G00 X-203.1765 Y193.3516 Z8.0000 F4000
G00 Z0.5000 F
G01 Z0.0000 F240
G01 Z-1.0000
G01 Y206.0516 F2400
G01 X-228.5765
G00 Z8.0000 F


(No. 121: Engraving 64)
G00 X-190.4765 Y206.0516 Z8.0000 F4000
G00 Z0.5000 F
G01 Z0.0000 F240
G01 Z-1.0000
G01 Y218.7516 F2400
G00 Z8.0000 F


(No. 122: Engraving 182)
G00 X-165.0765 Y206.0516 Z8.0000 F4000
G00 Z0.5000 F
G01 Z0.0000 F240
G01 Z-1.0000
G01 Y218.7516 F2400
G00 Z8.0000 F


(No. 123: Engraving 184)
G00 X-139.6765 Y206.0516 Z8.0000 F4000
G00 Z0.5000 F
G01 Z0.0000 F240
G01 Z-1.0000
G01 Y218.7516 F2400
G00 Z8.0000 F


(No. 124: Engraving 186)
G00 X-114.2765 Y206.0516 Z8.0000 F4000
G00 Z0.5000 F
G01 Z0.0000 F240
G01 Z-1.0000
G01 Y218.7516 F2400
G00 Z8.0000 F


(No. 125: Engraving 188)
G00 X-88.8765 Y206.0516 Z8.0000 F4000
G00 Z0.5000 F
G01 Z0.0000 F240
G01 Z-1.0000
G01 Y218.7516 F2400
G00 Z8.0000 F


(No. 126: Engraving 190)
G00 X-63.4765 Y206.0516 Z8.0000 F4000
G00 Z0.5000 F
G01 Z0.0000 F240
G01 Z-1.0000
G01 Y218.7516 F2400
G00 Z8.0000 F


(No. 127: Engraving 191)
G00 X-50.7765 Y218.7516 Z8.0000 F4000
G00 Z0.5000 F
G01 Z0.0000 F240
G01 Z-1.0000
G01 Y231.4516 F2400
G01 X-76.1765
G00 Z8.0000 F


(No. 128: Engraving 156)
G00 X-38.0765 Y231.4516 Z8.0000 F4000
G00 Z0.5000 F
G01 Z0.0000 F240
G01 Z-1.0000
G01 Y244.1516 F2400
G00 Z8.0000 F


(No. 129: Engraving 157)
G00 X-25.3765 Y244.1516 Z8.0000 F4000
G00 Z0.5000 F
G01 Z0.0000 F240
G01 Z-1.0000
G01 Y256.8516 F2400
G01 X-50.7765
G00 Z8.0000 F


(No. 130: Engraving 122)
G00 X-12.6765 Y256.8516 Z8.0000 F4000
G00 Z0.5000 F
G01 Z0.0000 F240
G01 Z-1.0000
G01 Y269.5516 F2400
G00 Z8.0000 F


(No. 131: Engraving 123)
G00 X0.0235 Y269.5516 Z8.0000 F4000
G00 Z0.5000 F
G01 Z0.0000 F240
G01 Z-1.0000
G01 Y282.2516 F2400
G01 X-25.3765
G00 Z8.0000 F


(No. 132: Engraving 88)
G00 X12.7235 Y282.2516 Z8.0000 F4000
G00 Z0.5000 F
G01 Z0.0000 F240
G01 Z-1.0000
G01 Y294.9516 F2400
G00 Z8.0000 F


(No. 133: Engraving 89)
G00 X25.4235 Y294.9516 Z8.0000 F4000
G00 Z0.5000 F
G01 Z0.0000 F240
G01 Z-1.0000
G01 Y307.6516 F2400
G01 X0.0235
G00 Z8.0000 F


(No. 134: Engraving 90)
G00 X38.1235 Y282.2516 Z8.0000 F4000
G00 Z0.5000 F
G01 Z0.0000 F240
G01 Z-1.0000
G01 Y294.9516 F2400
G00 Z8.0000 F


(No. 135: Engraving 91)
G00 X50.8235 Y294.9516 Z8.0000 F4000
G00 Z0.5000 F
G01 Z0.0000 F240
G01 Z-1.0000
G01 Y307.6516 F2400
G01 X25.4235
G00 Z8.0000 F


(No. 136: Engraving 125)
G00 X25.4235 Y269.5516 Z8.0000 F4000
G00 Z0.5000 F
G01 Z0.0000 F240
G01 Z-1.0000
G01 Y282.2516 F2400
G01 X0.0235
G00 Z8.0000 F


(No. 137: Engraving 124)
G00 X12.7235 Y256.8516 Z8.0000 F4000
G00 Z0.5000 F
G01 Z0.0000 F240
G01 Z-1.0000
G01 Y269.5516 F2400
G00 Z8.0000 F


(No. 138: Engraving 159)
G00 X0.0235 Y244.1516 Z8.0000 F4000
G00 Z0.5000 F
G01 Z0.0000 F240
G01 Z-1.0000
G01 Y256.8516 F2400
G01 X-25.3765
G00 Z8.0000 F


(No. 139: Engraving 158)
G00 X-12.6765 Y231.4516 Z8.0000 F4000
G00 Z0.5000 F
G01 Z0.0000 F240
G01 Z-1.0000
G01 Y244.1516 F2400
G00 Z8.0000 F


(No. 140: Engraving 160)
G00 X12.7235 Y231.4516 Z8.0000 F4000
G00 Z0.5000 F
G01 Z0.0000 F240
G01 Z-1.0000
G01 Y244.1516 F2400
G00 Z8.0000 F


(No. 141: Engraving 161)
G00 X25.4235 Y244.1516 Z8.0000 F4000
G00 Z0.5000 F
G01 Z0.0000 F240
G01 Z-1.0000
G01 Y256.8516 F2400
G01 X0.0235
G00 Z8.0000 F


(No. 142: Engraving 126)
G00 X38.1235 Y256.8516 Z8.0000 F4000
G00 Z0.5000 F
G01 Z0.0000 F240
G01 Z-1.0000
G01 Y269.5516 F2400
G00 Z8.0000 F


(No. 143: Engraving 127)
G00 X50.8235 Y269.5516 Z8.0000 F4000
G00 Z0.5000 F
G01 Z0.0000 F240
G01 Z-1.0000
G01 Y282.2516 F2400
G01 X25.4235
G00 Z8.0000 F


(No. 144: Engraving 92)
G00 X63.5235 Y282.2516 Z8.0000 F4000
G00 Z0.5000 F
G01 Z0.0000 F240
G01 Z-1.0000
G01 Y294.9516 F2400
G00 Z8.0000 F


(No. 145: Engraving 93)
G00 X76.2235 Y294.9516 Z8.0000 F4000
G00 Z0.5000 F
G01 Z0.0000 F240
G01 Z-1.0000
G01 Y307.6516 F2400
G01 X50.8235
G00 Z8.0000 F


(No. 146: Engraving 94)
G00 X88.9235 Y282.2516 Z8.0000 F4000
G00 Z0.5000 F
G01 Z0.0000 F240
G01 Z-1.0000
G01 Y294.9516 F2400
G00 Z8.0000 F


(No. 147: Engraving 95)
G00 X101.6235 Y294.9516 Z8.0000 F4000
G00 Z0.5000 F
G01 Z0.0000 F240
G01 Z-1.0000
G01 Y307.6516 F2400
G01 X76.2235
G00 Z8.0000 F


(No. 148: Engraving 129)
G00 X76.2235 Y269.5516 Z8.0000 F4000
G00 Z0.5000 F
G01 Z0.0000 F240
G01 Z-1.0000
G01 Y282.2516 F2400
G01 X50.8235
G00 Z8.0000 F


(No. 149: Engraving 128)
G00 X63.5235 Y256.8516 Z8.0000 F4000
G00 Z0.5000 F
G01 Z0.0000 F240
G01 Z-1.0000
G01 Y269.5516 F2400
G00 Z8.0000 F


(No. 150: Engraving 130)
G00 X88.9235 Y256.8516 Z8.0000 F4000
G00 Z0.5000 F
G01 Z0.0000 F240
G01 Z-1.0000
G01 Y269.5516 F2400
G00 Z8.0000 F


(No. 151: Engraving 131)
G00 X101.6235 Y269.5516 Z8.0000 F4000
G00 Z0.5000 F
G01 Z0.0000 F240
G01 Z-1.0000
G01 Y282.2516 F2400
G01 X76.2235
G00 Z8.0000 F


(No. 152: Engraving 96)
G00 X114.3235 Y282.2516 Z8.0000 F4000
G00 Z0.5000 F
G01 Z0.0000 F240
G01 Z-1.0000
G01 Y294.9516 F2400
G00 Z8.0000 F


(No. 153: Engraving 97)
G00 X127.0235 Y294.9516 Z8.0000 F4000
G00 Z0.5000 F
G01 Z0.0000 F240
G01 Z-1.0000
G01 Y307.6516 F2400
G01 X101.6235
G00 Z8.0000 F


(No. 154: Engraving 98)
G00 X139.7235 Y282.2516 Z8.0000 F4000
G00 Z0.5000 F
G01 Z0.0000 F240
G01 Z-1.0000
G01 Y294.9516 F2400
G00 Z8.0000 F


(No. 155: Engraving 99)
G00 X152.4235 Y294.9516 Z8.0000 F4000
G00 Z0.5000 F
G01 Z0.0000 F240
G01 Z-1.0000
G01 Y307.6516 F2400
G01 X127.0235
G00 Z8.0000 F


(No. 156: Engraving 133)
G00 X127.0235 Y269.5516 Z8.0000 F4000
G00 Z0.5000 F
G01 Z0.0000 F240
G01 Z-1.0000
G01 Y282.2516 F2400
G01 X101.6235
G00 Z8.0000 F


(No. 157: Engraving 132)
G00 X114.3235 Y256.8516 Z8.0000 F4000
G00 Z0.5000 F
G01 Z0.0000 F240
G01 Z-1.0000
G01 Y269.5516 F2400
G00 Z8.0000 F


(No. 158: Engraving 167)
G00 X101.6235 Y244.1516 Z8.0000 F4000
G00 Z0.5000 F
G01 Z0.0000 F240
G01 Z-1.0000
G01 Y256.8516 F2400
G01 X76.2235
G00 Z8.0000 F


(No. 159: Engraving 165)
G00 X76.2235 Y244.1516 Z8.0000 F4000
G00 Z0.5000 F
G01 Z0.0000 F240
G01 Z-1.0000
G01 Y256.8516 F2400
G01 X50.8235
G00 Z8.0000 F


(No. 160: Engraving 163)
G00 X50.8235 Y244.1516 Z8.0000 F4000
G00 Z0.5000 F
G01 Z0.0000 F240
G01 Z-1.0000
G01 Y256.8516 F2400
G01 X25.4235
G00 Z8.0000 F


(No. 161: Engraving 162)
G00 X38.1235 Y231.4516 Z8.0000 F4000
G00 Z0.5000 F
G01 Z0.0000 F240
G01 Z-1.0000
G01 Y244.1516 F2400
G00 Z8.0000 F


(No. 162: Engraving 197)
G00 X25.4235 Y218.7516 Z8.0000 F4000
G00 Z0.5000 F
G01 Z0.0000 F240
G01 Z-1.0000
G01 Y231.4516 F2400
G01 X0.0235
G00 Z8.0000 F


(No. 163: Engraving 195)
G00 X0.0235 Y218.7516 Z8.0000 F4000
G00 Z0.5000 F
G01 Z0.0000 F240
G01 Z-1.0000
G01 Y231.4516 F2400
G01 X-25.3765
G00 Z8.0000 F


(No. 164: Engraving 193)
G00 X-25.3765 Y218.7516 Z8.0000 F4000
G00 Z0.5000 F
G01 Z0.0000 F240
G01 Z-1.0000
G01 Y231.4516 F2400
G01 X-50.7765
G00 Z8.0000 F


(No. 165: Engraving 227)
G00 X-50.7765 Y193.3516 Z8.0000 F4000
G00 Z0.5000 F
G01 Z0.0000 F240
G01 Z-1.0000
G01 Y206.0516 F2400
G01 X-76.1765
G00 Z8.0000 F


(No. 166: Engraving 225)
G00 X-76.1765 Y193.3516 Z8.0000 F4000
G00 Z0.5000 F
G01 Z0.0000 F240
G01 Z-1.0000
G01 Y206.0516 F2400
G01 X-101.5765
G00 Z8.0000 F


(No. 167: Engraving 223)
G00 X-101.5765 Y193.3516 Z8.0000 F4000
G00 Z0.5000 F
G01 Z0.0000 F240
G01 Z-1.0000
G01 Y206.0516 F2400
G01 X-126.9765
G00 Z8.0000 F


(No. 168: Engraving 221)
G00 X-126.9765 Y193.3516 Z8.0000 F4000
G00 Z0.5000 F
G01 Z0.0000 F240
G01 Z-1.0000
G01 Y206.0516 F2400
G01 X-152.3765
G00 Z8.0000 F


(No. 169: Engraving 219)
G00 X-152.3765 Y193.3516 Z8.0000 F4000
G00 Z0.5000 F
G01 Z0.0000 F240
G01 Z-1.0000
G01 Y206.0516 F2400
G01 X-177.7765
G00 Z8.0000 F


(No. 170: Engraving 69)
G00 X-177.7765 Y193.3516 Z8.0000 F4000
G00 Z0.5000 F
G01 Z0.0000 F240
G01 Z-1.0000
G01 Y206.0516 F2400
G01 X-203.1765
G00 Z8.0000 F


(No. 171: Engraving 68)
G00 X-190.4765 Y180.6516 Z8.0000 F4000
G00 Z0.5000 F
G01 Z0.0000 F240
G01 Z-1.0000
G01 Y193.3516 F2400
G00 Z8.0000 F


(No. 172: Engraving 73)
G00 X-177.7765 Y167.9516 Z8.0000 F4000
G00 Z0.5000 F
G01 Z0.0000 F240
G01 Z-1.0000
G01 Y180.6516 F2400
G01 X-203.1765
G00 Z8.0000 F


(No. 173: Engraving 71)
G00 X-203.1765 Y167.9516 Z8.0000 F4000
G00 Z0.5000 F
G01 Z0.0000 F240
G01 Z-1.0000
G01 Y180.6516 F2400
G01 X-228.5765
G00 Z8.0000 F


(No. 174: Engraving 70)
G00 X-215.8765 Y155.2516 Z8.0000 F4000
G00 Z0.5000 F
G01 Z0.0000 F240
G01 Z-1.0000
G01 Y167.9516 F2400
G00 Z8.0000 F


(No. 175: Engraving 72)
G00 X-190.4765 Y155.2516 Z8.0000 F4000
G00 Z0.5000 F
G01 Z0.0000 F240
G01 Z-1.0000
G01 Y167.9516 F2400
G00 Z8.0000 F


(No. 176: Engraving 301)
G00 X-177.7765 Y142.5516 Z8.0000 F4000
G00 Z0.5000 F
G01 Z0.0000 F240
G01 Z-1.0000
G01 Y155.2516 F2400
G01 X-203.1765
G00 Z8.0000 F


(No. 177: Engraving 298)
G00 X-215.8765 Y129.8516 Z8.0000 F4000
G00 Z0.5000 F
G01 Z0.0000 F240
G01 Z-1.0000
G01 Y142.5516 F2400
G00 Z8.0000 F


(No. 178: Engraving 345)
G00 X-228.5765 Y117.1516 Z8.0000 F4000
G00 Z0.5000 F
G01 Z0.0000 F240
G01 Z-1.0000
G01 Y129.8516 F2400
G01 X-253.9765
G00 Z8.0000 F


(No. 179: Engraving 344)
G00 X-241.2765 Y104.4516 Z8.0000 F4000
G00 Z0.5000 F
G01 Z0.0000 F240
G01 Z-1.0000
G01 Y117.1516 F2400
G00 Z8.0000 F


(No. 180: Engraving 391)
G00 X-253.9765 Y91.7516 Z8.0000 F4000
G00 Z0.5000 F
G01 Z0.0000 F240
G01 Z-1.0000
G01 Y104.4516 F2400
G01 X-279.3765
G00 Z8.0000 F


(No. 181: Engraving 389)
G00 X-279.3765 Y91.7516 Z8.0000 F4000
G00 Z0.5000 F
G01 Z0.0000 F240
G01 Z-1.0000
G01 Y104.4516 F2400
G01 X-304.7765
G00 Z8.0000 F


(No. 182: Engraving 339)
G00 X-317.4765 Y104.4516 Z8.0000 F4000
G00 Z0.5000 F
G01 Z0.0000 F240
G01 Z-1.0000
G01 Y117.1516 F2400
G00 Z8.0000 F


(No. 183: Engraving 387)
G00 X-317.4765 Y79.0516 Z8.0000 F4000
G00 Z0.5000 F
G01 Z0.0000 F240
G01 Z-1.0000
G01 Y91.7516 F2400
G00 Z8.0000 F


(No. 184: Engraving 388)
G00 X-292.0765 Y79.0516 Z8.0000 F4000
G00 Z0.5000 F
G01 Z0.0000 F240
G01 Z-1.0000
G01 Y91.7516 F2400
G00 Z8.0000 F


(No. 185: Engraving 390)
G00 X-266.6765 Y79.0516 Z8.0000 F4000
G00 Z0.5000 F
G01 Z0.0000 F240
G01 Z-1.0000
G01 Y91.7516 F2400
G00 Z8.0000 F


(No. 186: Engraving 392)
G00 X-241.2765 Y79.0516 Z8.0000 F4000
G00 Z0.5000 F
G01 Z0.0000 F240
G01 Z-1.0000
G01 Y91.7516 F2400
G00 Z8.0000 F


(No. 187: Engraving 393)
G00 X-228.5765 Y91.7516 Z8.0000 F4000
G00 Z0.5000 F
G01 Z0.0000 F240
G01 Z-1.0000
G01 Y104.4516 F2400
G01 X-253.9765
G00 Z8.0000 F


(No. 188: Engraving 346)
G00 X-215.8765 Y104.4516 Z8.0000 F4000
G00 Z0.5000 F
G01 Z0.0000 F240
G01 Z-1.0000
G01 Y117.1516 F2400
G00 Z8.0000 F


(No. 189: Engraving 347)
G00 X-203.1765 Y117.1516 Z8.0000 F4000
G00 Z0.5000 F
G01 Z0.0000 F240
G01 Z-1.0000
G01 Y129.8516 F2400
G01 X-228.5765
G00 Z8.0000 F


(No. 190: Engraving 300)
G00 X-190.4765 Y129.8516 Z8.0000 F4000
G00 Z0.5000 F
G01 Z0.0000 F240
G01 Z-1.0000
G01 Y142.5516 F2400
G00 Z8.0000 F


(No. 191: Engraving 302)
G00 X-165.0765 Y129.8516 Z8.0000 F4000
G00 Z0.5000 F
G01 Z0.0000 F240
G01 Z-1.0000
G01 Y142.5516 F2400
G00 Z8.0000 F


(No. 192: Engraving 303)
G00 X-152.3765 Y142.5516 Z8.0000 F4000
G00 Z0.5000 F
G01 Z0.0000 F240
G01 Z-1.0000
G01 Y155.2516 F2400
G01 X-177.7765
G00 Z8.0000 F


(No. 193: Engraving 254)
G00 X-165.0765 Y155.2516 Z8.0000 F4000
G00 Z0.5000 F
G01 Z0.0000 F240
G01 Z-1.0000
G01 Y167.9516 F2400
G00 Z8.0000 F


(No. 194: Engraving 255)
G00 X-152.3765 Y167.9516 Z8.0000 F4000
G00 Z0.5000 F
G01 Z0.0000 F240
G01 Z-1.0000
G01 Y180.6516 F2400
G01 X-177.7765
G00 Z8.0000 F


(No. 195: Engraving 218)
G00 X-165.0765 Y180.6516 Z8.0000 F4000
G00 Z0.5000 F
G01 Z0.0000 F240
G01 Z-1.0000
G01 Y193.3516 F2400
G00 Z8.0000 F


(No. 196: Engraving 220)
G00 X-139.6765 Y180.6516 Z8.0000 F4000
G00 Z0.5000 F
G01 Z0.0000 F240
G01 Z-1.0000
G01 Y193.3516 F2400
G00 Z8.0000 F


(No. 197: Engraving 222)
G00 X-114.2765 Y180.6516 Z8.0000 F4000
G00 Z0.5000 F
G01 Z0.0000 F240
G01 Z-1.0000
G01 Y193.3516 F2400
G00 Z8.0000 F


(No. 198: Engraving 224)
G00 X-88.8765 Y180.6516 Z8.0000 F4000
G00 Z0.5000 F
G01 Z0.0000 F240
G01 Z-1.0000
G01 Y193.3516 F2400
G00 Z8.0000 F


(No. 199: Engraving 259)
G00 X-101.5765 Y167.9516 Z8.0000 F4000
G00 Z0.5000 F
G01 Z0.0000 F240
G01 Z-1.0000
G01 Y180.6516 F2400
G01 X-126.9765
G00 Z8.0000 F


(No. 200: Engraving 257)
G00 X-126.9765 Y167.9516 Z8.0000 F4000
G00 Z0.5000 F
G01 Z0.0000 F240
G01 Z-1.0000
G01 Y180.6516 F2400
G01 X-152.3765
G00 Z8.0000 F


(No. 201: Engraving 256)
G00 X-139.6765 Y155.2516 Z8.0000 F4000
G00 Z0.5000 F
G01 Z0.0000 F240
G01 Z-1.0000
G01 Y167.9516 F2400
G00 Z8.0000 F


(No. 202: Engraving 258)
G00 X-114.2765 Y155.2516 Z8.0000 F4000
G00 Z0.5000 F
G01 Z0.0000 F240
G01 Z-1.0000
G01 Y167.9516 F2400
G00 Z8.0000 F


(No. 203: Engraving 305)
G00 X-126.9765 Y142.5516 Z8.0000 F4000
G00 Z0.5000 F
G01 Z0.0000 F240
G01 Z-1.0000
G01 Y155.2516 F2400
G01 X-152.3765
G00 Z8.0000 F


(No. 204: Engraving 304)
G00 X-139.6765 Y129.8516 Z8.0000 F4000
G00 Z0.5000 F
G01 Z0.0000 F240
G01 Z-1.0000
G01 Y142.5516 F2400
G00 Z8.0000 F


(No. 205: Engraving 306)
G00 X-114.2765 Y129.8516 Z8.0000 F4000
G00 Z0.5000 F
G01 Z0.0000 F240
G01 Z-1.0000
G01 Y142.5516 F2400
G00 Z8.0000 F


(No. 206: Engraving 307)
G00 X-101.5765 Y142.5516 Z8.0000 F4000
G00 Z0.5000 F
G01 Z0.0000 F240
G01 Z-1.0000
G01 Y155.2516 F2400
G01 X-126.9765
G00 Z8.0000 F


(No. 207: Engraving 260)
G00 X-88.8765 Y155.2516 Z8.0000 F4000
G00 Z0.5000 F
G01 Z0.0000 F240
G01 Z-1.0000
G01 Y167.9516 F2400
G00 Z8.0000 F


(No. 208: Engraving 261)
G00 X-76.1765 Y167.9516 Z8.0000 F4000
G00 Z0.5000 F
G01 Z0.0000 F240
G01 Z-1.0000
G01 Y180.6516 F2400
G01 X-101.5765
G00 Z8.0000 F


(No. 209: Engraving 309)
G00 X-76.1765 Y142.5516 Z8.0000 F4000
G00 Z0.5000 F
G01 Z0.0000 F240
G01 Z-1.0000
G01 Y155.2516 F2400
G01 X-101.5765
G00 Z8.0000 F


(No. 210: Engraving 308)
G00 X-88.8765 Y129.8516 Z8.0000 F4000
G00 Z0.5000 F
G01 Z0.0000 F240
G01 Z-1.0000
G01 Y142.5516 F2400
G00 Z8.0000 F


(No. 211: Engraving 355)
G00 X-101.5765 Y117.1516 Z8.0000 F4000
G00 Z0.5000 F
G01 Z0.0000 F240
G01 Z-1.0000
G01 Y129.8516 F2400
G01 X-126.9765
G00 Z8.0000 F


(No. 212: Engraving 353)
G00 X-126.9765 Y117.1516 Z8.0000 F4000
G00 Z0.5000 F
G01 Z0.0000 F240
G01 Z-1.0000
G01 Y129.8516 F2400
G01 X-152.3765
G00 Z8.0000 F


(No. 213: Engraving 351)
G00 X-152.3765 Y117.1516 Z8.0000 F4000
G00 Z0.5000 F
G01 Z0.0000 F240
G01 Z-1.0000
G01 Y129.8516 F2400
G01 X-177.7765
G00 Z8.0000 F


(No. 214: Engraving 350)
G00 X-165.0765 Y104.4516 Z8.0000 F4000
G00 Z0.5000 F
G01 Z0.0000 F240
G01 Z-1.0000
G01 Y117.1516 F2400
G00 Z8.0000 F


(No. 215: Engraving 352)
G00 X-139.6765 Y104.4516 Z8.0000 F4000
G00 Z0.5000 F
G01 Z0.0000 F240
G01 Z-1.0000
G01 Y117.1516 F2400
G00 Z8.0000 F


(No. 216: Engraving 354)
G00 X-114.2765 Y104.4516 Z8.0000 F4000
G00 Z0.5000 F
G01 Z0.0000 F240
G01 Z-1.0000
G01 Y117.1516 F2400
G00 Z8.0000 F


(No. 217: Engraving 401)
G00 X-126.9765 Y91.7516 Z8.0000 F4000
G00 Z0.5000 F
G01 Z0.0000 F240
G01 Z-1.0000
G01 Y104.4516 F2400
G01 X-152.3765
G00 Z8.0000 F


(No. 218: Engraving 397)
G00 X-177.7765 Y91.7516 Z8.0000 F4000
G00 Z0.5000 F
G01 Z0.0000 F240
G01 Z-1.0000
G01 Y104.4516 F2400
G01 X-203.1765
G00 Z8.0000 F


(No. 219: Engraving 395)
G00 X-203.1765 Y91.7516 Z8.0000 F4000
G00 Z0.5000 F
G01 Z0.0000 F240
G01 Z-1.0000
G01 Y104.4516 F2400
G01 X-228.5765
G00 Z8.0000 F


(No. 220: Engraving 394)
G00 X-215.8765 Y79.0516 Z8.0000 F4000
G00 Z0.5000 F
G01 Z0.0000 F240
G01 Z-1.0000
G01 Y91.7516 F2400
G00 Z8.0000 F


(No. 221: Engraving 441)
G00 X-228.5765 Y66.3516 Z8.0000 F4000
G00 Z0.5000 F
G01 Z0.0000 F240
G01 Z-1.0000
G01 Y79.0516 F2400
G01 X-253.9765
G00 Z8.0000 F


(No. 222: Engraving 439)
G00 X-253.9765 Y66.3516 Z8.0000 F4000
G00 Z0.5000 F
G01 Z0.0000 F240
G01 Z-1.0000
G01 Y79.0516 F2400
G01 X-279.3765
G00 Z8.0000 F


(No. 223: Engraving 437)
G00 X-279.3765 Y66.3516 Z8.0000 F4000
G00 Z0.5000 F
G01 Z0.0000 F240
G01 Z-1.0000
G01 Y79.0516 F2400
G01 X-304.7765
G00 Z8.0000 F


(No. 224: Engraving 436)
G00 X-292.0765 Y53.6516 Z8.0000 F4000
G00 Z0.5000 F
G01 Z0.0000 F240
G01 Z-1.0000
G01 Y66.3516 F2400
G00 Z8.0000 F


(No. 225: Engraving 438)
G00 X-266.6765 Y53.6516 Z8.0000 F4000
G00 Z0.5000 F
G01 Z0.0000 F240
G01 Z-1.0000
G01 Y66.3516 F2400
G00 Z8.0000 F


(No. 226: Engraving 440)
G00 X-241.2765 Y53.6516 Z8.0000 F4000
G00 Z0.5000 F
G01 Z0.0000 F240
G01 Z-1.0000
G01 Y66.3516 F2400
G00 Z8.0000 F


(No. 227: Engraving 487)
G00 X-253.9765 Y40.9516 Z8.0000 F4000
G00 Z0.5000 F
G01 Z0.0000 F240
G01 Z-1.0000
G01 Y53.6516 F2400
G01 X-279.3765
G00 Z8.0000 F


(No. 228: Engraving 485)
G00 X-279.3765 Y40.9516 Z8.0000 F4000
G00 Z0.5000 F
G01 Z0.0000 F240
G01 Z-1.0000
G01 Y53.6516 F2400
G01 X-304.7765
G00 Z8.0000 F


(No. 229: Engraving 435)
G00 X-317.4765 Y53.6516 Z8.0000 F4000
G00 Z0.5000 F
G01 Z0.0000 F240
G01 Z-1.0000
G01 Y66.3516 F2400
G00 Z8.0000 F


(No. 230: Engraving 483)
G00 X-317.4765 Y28.2516 Z8.0000 F4000
G00 Z0.5000 F
G01 Z0.0000 F240
G01 Z-1.0000
G01 Y40.9516 F2400
G00 Z8.0000 F


(No. 231: Engraving 484)
G00 X-292.0765 Y28.2516 Z8.0000 F4000
G00 Z0.5000 F
G01 Z0.0000 F240
G01 Z-1.0000
G01 Y40.9516 F2400
G00 Z8.0000 F


(No. 232: Engraving 533)
G00 X-279.3765 Y15.5516 Z8.0000 F4000
G00 Z0.5000 F
G01 Z0.0000 F240
G01 Z-1.0000
G01 Y28.2516 F2400
G01 X-304.7765
G00 Z8.0000 F


(No. 233: Engraving 532)
G00 X-292.0765 Y2.8516 Z8.0000 F4000
G00 Z0.5000 F
G01 Z0.0000 F240
G01 Z-1.0000
G01 Y15.5516 F2400
G00 Z8.0000 F


(No. 234: Engraving 486)
G00 X-266.6765 Y28.2516 Z8.0000 F4000
G00 Z0.5000 F
G01 Z0.0000 F240
G01 Z-1.0000
G01 Y40.9516 F2400
G00 Z8.0000 F


(No. 235: Engraving 488)
G00 X-241.2765 Y28.2516 Z8.0000 F4000
G00 Z0.5000 F
G01 Z0.0000 F240
G01 Z-1.0000
G01 Y40.9516 F2400
G00 Z8.0000 F


(No. 236: Engraving 489)
G00 X-228.5765 Y40.9516 Z8.0000 F4000
G00 Z0.5000 F
G01 Z0.0000 F240
G01 Z-1.0000
G01 Y53.6516 F2400
G01 X-253.9765
G00 Z8.0000 F


(No. 237: Engraving 442)
G00 X-215.8765 Y53.6516 Z8.0000 F4000
G00 Z0.5000 F
G01 Z0.0000 F240
G01 Z-1.0000
G01 Y66.3516 F2400
G00 Z8.0000 F


(No. 238: Engraving 443)
G00 X-203.1765 Y66.3516 Z8.0000 F4000
G00 Z0.5000 F
G01 Z0.0000 F240
G01 Z-1.0000
G01 Y79.0516 F2400
G01 X-228.5765
G00 Z8.0000 F


(No. 239: Engraving 396)
G00 X-190.4765 Y79.0516 Z8.0000 F4000
G00 Z0.5000 F
G01 Z0.0000 F240
G01 Z-1.0000
G01 Y91.7516 F2400
G00 Z8.0000 F


(No. 240: Engraving 445)
G00 X-177.7765 Y66.3516 Z8.0000 F4000
G00 Z0.5000 F
G01 Z0.0000 F240
G01 Z-1.0000
G01 Y79.0516 F2400
G01 X-203.1765
G00 Z8.0000 F


(No. 241: Engraving 444)
G00 X-190.4765 Y53.6516 Z8.0000 F4000
G00 Z0.5000 F
G01 Z0.0000 F240
G01 Z-1.0000
G01 Y66.3516 F2400
G00 Z8.0000 F


(No. 242: Engraving 446)
G00 X-165.0765 Y53.6516 Z8.0000 F4000
G00 Z0.5000 F
G01 Z0.0000 F240
G01 Z-1.0000
G01 Y66.3516 F2400
G00 Z8.0000 F


(No. 243: Engraving 447)
G00 X-152.3765 Y66.3516 Z8.0000 F4000
G00 Z0.5000 F
G01 Z0.0000 F240
G01 Z-1.0000
G01 Y79.0516 F2400
G01 X-177.7765
G00 Z8.0000 F


(No. 244: Engraving 493)
G00 X-177.7765 Y40.9516 Z8.0000 F4000
G00 Z0.5000 F
G01 Z0.0000 F240
G01 Z-1.0000
G01 Y53.6516 F2400
G01 X-203.1765
G00 Z8.0000 F


(No. 245: Engraving 491)
G00 X-203.1765 Y40.9516 Z8.0000 F4000
G00 Z0.5000 F
G01 Z0.0000 F240
G01 Z-1.0000
G01 Y53.6516 F2400
G01 X-228.5765
G00 Z8.0000 F


(No. 246: Engraving 490)
G00 X-215.8765 Y28.2516 Z8.0000 F4000
G00 Z0.5000 F
G01 Z0.0000 F240
G01 Z-1.0000
G01 Y40.9516 F2400
G00 Z8.0000 F


(No. 247: Engraving 537)
G00 X-228.5765 Y15.5516 Z8.0000 F4000
G00 Z0.5000 F
G01 Z0.0000 F240
G01 Z-1.0000
G01 Y28.2516 F2400
G01 X-253.9765
G00 Z8.0000 F


(No. 248: Engraving 535)
G00 X-253.9765 Y15.5516 Z8.0000 F4000
G00 Z0.5000 F
G01 Z0.0000 F240
G01 Z-1.0000
G01 Y28.2516 F2400
G01 X-279.3765
G00 Z8.0000 F


(No. 249: Engraving 534)
G00 X-266.6765 Y2.8516 Z8.0000 F4000
G00 Z0.5000 F
G01 Z0.0000 F240
G01 Z-1.0000
G01 Y15.5516 F2400
G00 Z8.0000 F


(No. 250: Engraving 536)
G00 X-241.2765 Y2.8516 Z8.0000 F4000
G00 Z0.5000 F
G01 Z0.0000 F240
G01 Z-1.0000
G01 Y15.5516 F2400
G00 Z8.0000 F


(No. 251: Engraving 538)
G00 X-215.8765 Y2.8516 Z8.0000 F4000
G00 Z0.5000 F
G01 Z0.0000 F240
G01 Z-1.0000
G01 Y15.5516 F2400
G00 Z8.0000 F


(No. 252: Engraving 539)
G00 X-203.1765 Y15.5516 Z8.0000 F4000
G00 Z0.5000 F
G01 Z0.0000 F240
G01 Z-1.0000
G01 Y28.2516 F2400
G01 X-228.5765
G00 Z8.0000 F


(No. 253: Engraving 492)
G00 X-190.4765 Y28.2516 Z8.0000 F4000
G00 Z0.5000 F
G01 Z0.0000 F240
G01 Z-1.0000
G01 Y40.9516 F2400
G00 Z8.0000 F


(No. 254: Engraving 541)
G00 X-177.7765 Y15.5516 Z8.0000 F4000
G00 Z0.5000 F
G01 Z0.0000 F240
G01 Z-1.0000
G01 Y28.2516 F2400
G01 X-203.1765
G00 Z8.0000 F


(No. 255: Engraving 540)
G00 X-190.4765 Y2.8516 Z8.0000 F4000
G00 Z0.5000 F
G01 Z0.0000 F240
G01 Z-1.0000
G01 Y15.5516 F2400
G00 Z8.0000 F


(No. 256: Engraving 494)
G00 X-165.0765 Y28.2516 Z8.0000 F4000
G00 Z0.5000 F
G01 Z0.0000 F240
G01 Z-1.0000
G01 Y40.9516 F2400
G00 Z8.0000 F


(No. 257: Engraving 495)
G00 X-152.3765 Y40.9516 Z8.0000 F4000
G00 Z0.5000 F
G01 Z0.0000 F240
G01 Z-1.0000
G01 Y53.6516 F2400
G01 X-177.7765
G00 Z8.0000 F


(No. 258: Engraving 448)
G00 X-139.6765 Y53.6516 Z8.0000 F4000
G00 Z0.5000 F
G01 Z0.0000 F240
G01 Z-1.0000
G01 Y66.3516 F2400
G00 Z8.0000 F


(No. 259: Engraving 400)
G00 X-139.6765 Y79.0516 Z8.0000 F4000
G00 Z0.5000 F
G01 Z0.0000 F240
G01 Z-1.0000
G01 Y91.7516 F2400
G00 Z8.0000 F


(No. 260: Engraving 402)
G00 X-114.2765 Y79.0516 Z8.0000 F4000
G00 Z0.5000 F
G01 Z0.0000 F240
G01 Z-1.0000
G01 Y91.7516 F2400
G00 Z8.0000 F


(No. 261: Engraving 403)
G00 X-101.5765 Y91.7516 Z8.0000 F4000
G00 Z0.5000 F
G01 Z0.0000 F240
G01 Z-1.0000
G01 Y104.4516 F2400
G01 X-126.9765
G00 Z8.0000 F


(No. 262: Engraving 356)
G00 X-88.8765 Y104.4516 Z8.0000 F4000
G00 Z0.5000 F
G01 Z0.0000 F240
G01 Z-1.0000
G01 Y117.1516 F2400
G00 Z8.0000 F


(No. 263: Engraving 357)
G00 X-76.1765 Y117.1516 Z8.0000 F4000
G00 Z0.5000 F
G01 Z0.0000 F240
G01 Z-1.0000
G01 Y129.8516 F2400
G01 X-101.5765
G00 Z8.0000 F


(No. 264: Engraving 405)
G00 X-76.1765 Y91.7516 Z8.0000 F4000
G00 Z0.5000 F
G01 Z0.0000 F240
G01 Z-1.0000
G01 Y104.4516 F2400
G01 X-101.5765
G00 Z8.0000 F


(No. 265: Engraving 404)
G00 X-88.8765 Y79.0516 Z8.0000 F4000
G00 Z0.5000 F
G01 Z0.0000 F240
G01 Z-1.0000
G01 Y91.7516 F2400
G00 Z8.0000 F


(No. 266: Engraving 451)
G00 X-101.5765 Y66.3516 Z8.0000 F4000
G00 Z0.5000 F
G01 Z0.0000 F240
G01 Z-1.0000
G01 Y79.0516 F2400
G01 X-126.9765
G00 Z8.0000 F


(No. 267: Engraving 450)
G00 X-114.2765 Y53.6516 Z8.0000 F4000
G00 Z0.5000 F
G01 Z0.0000 F240
G01 Z-1.0000
G01 Y66.3516 F2400
G00 Z8.0000 F


(No. 268: Engraving 452)
G00 X-88.8765 Y53.6516 Z8.0000 F4000
G00 Z0.5000 F
G01 Z0.0000 F240
G01 Z-1.0000
G01 Y66.3516 F2400
G00 Z8.0000 F


(No. 269: Engraving 453)
G00 X-76.1765 Y66.3516 Z8.0000 F4000
G00 Z0.5000 F
G01 Z0.0000 F240
G01 Z-1.0000
G01 Y79.0516 F2400
G01 X-101.5765
G00 Z8.0000 F


(No. 270: Engraving 497)
G00 X-126.9765 Y40.9516 Z8.0000 F4000
G00 Z0.5000 F
G01 Z0.0000 F240
G01 Z-1.0000
G01 Y53.6516 F2400
G01 X-152.3765
G00 Z8.0000 F


(No. 271: Engraving 496)
G00 X-139.6765 Y28.2516 Z8.0000 F4000
G00 Z0.5000 F
G01 Z0.0000 F240
G01 Z-1.0000
G01 Y40.9516 F2400
G00 Z8.0000 F


(No. 272: Engraving 498)
G00 X-114.2765 Y28.2516 Z8.0000 F4000
G00 Z0.5000 F
G01 Z0.0000 F240
G01 Z-1.0000
G01 Y40.9516 F2400
G00 Z8.0000 F


(No. 273: Engraving 545)
G00 X-126.9765 Y15.5516 Z8.0000 F4000
G00 Z0.5000 F
G01 Z0.0000 F240
G01 Z-1.0000
G01 Y28.2516 F2400
G01 X-152.3765
G00 Z8.0000 F


(No. 274: Engraving 543)
G00 X-152.3765 Y15.5516 Z8.0000 F4000
G00 Z0.5000 F
G01 Z0.0000 F240
G01 Z-1.0000
G01 Y28.2516 F2400
G01 X-177.7765
G00 Z8.0000 F


(No. 275: Engraving 542)
G00 X-165.0765 Y2.8516 Z8.0000 F4000
G00 Z0.5000 F
G01 Z0.0000 F240
G01 Z-1.0000
G01 Y15.5516 F2400
G00 Z8.0000 F


(No. 276: Engraving 544)
G00 X-139.6765 Y2.8516 Z8.0000 F4000
G00 Z0.5000 F
G01 Z0.0000 F240
G01 Z-1.0000
G01 Y15.5516 F2400
G00 Z8.0000 F


(No. 277: Engraving 546)
G00 X-114.2765 Y2.8516 Z8.0000 F4000
G00 Z0.5000 F
G01 Z0.0000 F240
G01 Z-1.0000
G01 Y15.5516 F2400
G00 Z8.0000 F


(No. 278: Engraving 547)
G00 X-101.5765 Y15.5516 Z8.0000 F4000
G00 Z0.5000 F
G01 Z0.0000 F240
G01 Z-1.0000
G01 Y28.2516 F2400
G01 X-126.9765
G00 Z8.0000 F


(No. 279: Engraving 548)
G00 X-88.8765 Y2.8516 Z8.0000 F4000
G00 Z0.5000 F
G01 Z0.0000 F240
G01 Z-1.0000
G01 Y15.5516 F2400
G00 Z8.0000 F


(No. 280: Engraving 501)
G00 X-76.1765 Y40.9516 Z8.0000 F4000
G00 Z0.5000 F
G01 Z0.0000 F240
G01 Z-1.0000
G01 Y53.6516 F2400
G01 X-101.5765
G00 Z8.0000 F


(No. 281: Engraving 263)
G00 X-50.7765 Y167.9516 Z8.0000 F4000
G00 Z0.5000 F
G01 Z0.0000 F240
G01 Z-1.0000
G01 Y180.6516 F2400
G01 X-76.1765
G00 Z8.0000 F


(No. 282: Engraving 199)
G00 X50.8235 Y218.7516 Z8.0000 F4000
G00 Z0.5000 F
G01 Z0.0000 F240
G01 Z-1.0000
G01 Y231.4516 F2400
G01 X25.4235
G00 Z8.0000 F


(No. 283: Engraving 164)
G00 X63.5235 Y231.4516 Z8.0000 F4000
G00 Z0.5000 F
G01 Z0.0000 F240
G01 Z-1.0000
G01 Y244.1516 F2400
G00 Z8.0000 F


(No. 284: Engraving 166)
G00 X88.9235 Y231.4516 Z8.0000 F4000
G00 Z0.5000 F
G01 Z0.0000 F240
G01 Z-1.0000
G01 Y244.1516 F2400
G00 Z8.0000 F


(No. 285: Engraving 168)
G00 X114.3235 Y231.4516 Z8.0000 F4000
G00 Z0.5000 F
G01 Z0.0000 F240
G01 Z-1.0000
G01 Y244.1516 F2400
G00 Z8.0000 F


(No. 286: Engraving 169)
G00 X127.0235 Y244.1516 Z8.0000 F4000
G00 Z0.5000 F
G01 Z0.0000 F240
G01 Z-1.0000
G01 Y256.8516 F2400
G01 X101.6235
G00 Z8.0000 F


(No. 287: Engraving 134)
G00 X139.7235 Y256.8516 Z8.0000 F4000
G00 Z0.5000 F
G01 Z0.0000 F240
G01 Z-1.0000
G01 Y269.5516 F2400
G00 Z8.0000 F


(No. 288: Engraving 135)
G00 X152.4235 Y269.5516 Z8.0000 F4000
G00 Z0.5000 F
G01 Z0.0000 F240
G01 Z-1.0000
G01 Y282.2516 F2400
G01 X127.0235
G00 Z8.0000 F


(No. 289: Engraving 100)
G00 X165.1235 Y282.2516 Z8.0000 F4000
G00 Z0.5000 F
G01 Z0.0000 F240
G01 Z-1.0000
G01 Y294.9516 F2400
G00 Z8.0000 F


(No. 290: Engraving 101)
G00 X177.8235 Y294.9516 Z8.0000 F4000
G00 Z0.5000 F
G01 Z0.0000 F240
G01 Z-1.0000
G01 Y307.6516 F2400
G01 X152.4235
G00 Z8.0000 F


(No. 291: Engraving 102)
G00 X190.5235 Y282.2516 Z8.0000 F4000
G00 Z0.5000 F
G01 Z0.0000 F240
G01 Z-1.0000
G01 Y294.9516 F2400
G00 Z8.0000 F


(No. 292: Engraving 103)
G00 X203.2235 Y294.9516 Z8.0000 F4000
G00 Z0.5000 F
G01 Z0.0000 F240
G01 Z-1.0000
G01 Y307.6516 F2400
G01 X177.8235
G00 Z8.0000 F


(No. 293: Engraving 137)
G00 X177.8235 Y269.5516 Z8.0000 F4000
G00 Z0.5000 F
G01 Z0.0000 F240
G01 Z-1.0000
G01 Y282.2516 F2400
G01 X152.4235
G00 Z8.0000 F


(No. 294: Engraving 136)
G00 X165.1235 Y256.8516 Z8.0000 F4000
G00 Z0.5000 F
G01 Z0.0000 F240
G01 Z-1.0000
G01 Y269.5516 F2400
G00 Z8.0000 F


(No. 295: Engraving 138)
G00 X190.5235 Y256.8516 Z8.0000 F4000
G00 Z0.5000 F
G01 Z0.0000 F240
G01 Z-1.0000
G01 Y269.5516 F2400
G00 Z8.0000 F


(No. 296: Engraving 139)
G00 X203.2235 Y269.5516 Z8.0000 F4000
G00 Z0.5000 F
G01 Z0.0000 F240
G01 Z-1.0000
G01 Y282.2516 F2400
G01 X177.8235
G00 Z8.0000 F


(No. 297: Engraving 173)
G00 X177.8235 Y244.1516 Z8.0000 F4000
G00 Z0.5000 F
G01 Z0.0000 F240
G01 Z-1.0000
G01 Y256.8516 F2400
G01 X152.4235
G00 Z8.0000 F


(No. 298: Engraving 171)
G00 X152.4235 Y244.1516 Z8.0000 F4000
G00 Z0.5000 F
G01 Z0.0000 F240
G01 Z-1.0000
G01 Y256.8516 F2400
G01 X127.0235
G00 Z8.0000 F


(No. 299: Engraving 170)
G00 X139.7235 Y231.4516 Z8.0000 F4000
G00 Z0.5000 F
G01 Z0.0000 F240
G01 Z-1.0000
G01 Y244.1516 F2400
G00 Z8.0000 F


(No. 300: Engraving 172)
G00 X165.1235 Y231.4516 Z8.0000 F4000
G00 Z0.5000 F
G01 Z0.0000 F240
G01 Z-1.0000
G01 Y244.1516 F2400
G00 Z8.0000 F


(No. 301: Engraving 174)
G00 X190.5235 Y231.4516 Z8.0000 F4000
G00 Z0.5000 F
G01 Z0.0000 F240
G01 Z-1.0000
G01 Y244.1516 F2400
G00 Z8.0000 F


(No. 302: Engraving 175)
G00 X203.2235 Y244.1516 Z8.0000 F4000
G00 Z0.5000 F
G01 Z0.0000 F240
G01 Z-1.0000
G01 Y256.8516 F2400
G01 X177.8235
G00 Z8.0000 F


(No. 303: Engraving 140)
G00 X215.9235 Y256.8516 Z8.0000 F4000
G00 Z0.5000 F
G01 Z0.0000 F240
G01 Z-1.0000
G01 Y269.5516 F2400
G00 Z8.0000 F


(No. 304: Engraving 141)
G00 X228.6235 Y269.5516 Z8.0000 F4000
G00 Z0.5000 F
G01 Z0.0000 F240
G01 Z-1.0000
G01 Y282.2516 F2400
G01 X203.2235
G00 Z8.0000 F


(No. 305: Engraving 104)
G00 X215.9235 Y282.2516 Z8.0000 F4000
G00 Z0.5000 F
G01 Z0.0000 F240
G01 Z-1.0000
G01 Y294.9516 F2400
G00 Z8.0000 F


(No. 306: Engraving 105)
G00 X228.6235 Y294.9516 Z8.0000 F4000
G00 Z0.5000 F
G01 Z0.0000 F240
G01 Z-1.0000
G01 Y307.6516 F2400
G01 X203.2235
G00 Z8.0000 F


(No. 307: Engraving 106)
G00 X241.3235 Y282.2516 Z8.0000 F4000
G00 Z0.5000 F
G01 Z0.0000 F240
G01 Z-1.0000
G01 Y294.9516 F2400
G00 Z8.0000 F


(No. 308: Engraving 107)
G00 X254.0235 Y294.9516 Z8.0000 F4000
G00 Z0.5000 F
G01 Z0.0000 F240
G01 Z-1.0000
G01 Y307.6516 F2400
G01 X228.6235
G00 Z8.0000 F


(No. 309: Engraving 108)
G00 X266.7235 Y282.2516 Z8.0000 F4000
G00 Z0.5000 F
G01 Z0.0000 F240
G01 Z-1.0000
G01 Y294.9516 F2400
G00 Z8.0000 F


(No. 310: Engraving 109)
G00 X279.4235 Y294.9516 Z8.0000 F4000
G00 Z0.5000 F
G01 Z0.0000 F240
G01 Z-1.0000
G01 Y307.6516 F2400
G01 X254.0235
G00 Z8.0000 F


(No. 311: Engraving 143)
G00 X254.0235 Y269.5516 Z8.0000 F4000
G00 Z0.5000 F
G01 Z0.0000 F240
G01 Z-1.0000
G01 Y282.2516 F2400
G01 X228.6235
G00 Z8.0000 F


(No. 312: Engraving 142)
G00 X241.3235 Y256.8516 Z8.0000 F4000
G00 Z0.5000 F
G01 Z0.0000 F240
G01 Z-1.0000
G01 Y269.5516 F2400
G00 Z8.0000 F


(No. 313: Engraving 144)
G00 X266.7235 Y256.8516 Z8.0000 F4000
G00 Z0.5000 F
G01 Z0.0000 F240
G01 Z-1.0000
G01 Y269.5516 F2400
G00 Z8.0000 F


(No. 314: Engraving 145)
G00 X279.4235 Y269.5516 Z8.0000 F4000
G00 Z0.5000 F
G01 Z0.0000 F240
G01 Z-1.0000
G01 Y282.2516 F2400
G01 X254.0235
G00 Z8.0000 F


(No. 315: Engraving 578)
G00 X292.1235 Y282.2516 Z8.0000 F4000
G00 Z0.5000 F
G01 Z0.0000 F240
G01 Z-1.0000
G01 Y294.9516 F2400
G00 Z8.0000 F


(No. 316: Engraving 579)
G00 X304.8235 Y294.9516 Z8.0000 F4000
G00 Z0.5000 F
G01 Z0.0000 F240
G01 Z-1.0000
G01 Y307.6516 F2400
G01 X279.4235
G00 Z8.0000 F


(No. 317: Engraving 583)
G00 X304.8235 Y269.5516 Z8.0000 F4000
G00 Z0.5000 F
G01 Z0.0000 F240
G01 Z-1.0000
G01 Y282.2516 F2400
G01 X279.4235
G00 Z8.0000 F


(No. 318: Engraving 582)
G00 X292.1235 Y256.8516 Z8.0000 F4000
G00 Z0.5000 F
G01 Z0.0000 F240
G01 Z-1.0000
G01 Y269.5516 F2400
G00 Z8.0000 F


(No. 319: Engraving 181)
G00 X279.4235 Y244.1516 Z8.0000 F4000
G00 Z0.5000 F
G01 Z0.0000 F240
G01 Z-1.0000
G01 Y256.8516 F2400
G01 X254.0235
G00 Z8.0000 F


(No. 320: Engraving 179)
G00 X254.0235 Y244.1516 Z8.0000 F4000
G00 Z0.5000 F
G01 Z0.0000 F240
G01 Z-1.0000
G01 Y256.8516 F2400
G01 X228.6235
G00 Z8.0000 F


(No. 321: Engraving 177)
G00 X228.6235 Y244.1516 Z8.0000 F4000
G00 Z0.5000 F
G01 Z0.0000 F240
G01 Z-1.0000
G01 Y256.8516 F2400
G01 X203.2235
G00 Z8.0000 F


(No. 322: Engraving 176)
G00 X215.9235 Y231.4516 Z8.0000 F4000
G00 Z0.5000 F
G01 Z0.0000 F240
G01 Z-1.0000
G01 Y244.1516 F2400
G00 Z8.0000 F


(No. 323: Engraving 178)
G00 X241.3235 Y231.4516 Z8.0000 F4000
G00 Z0.5000 F
G01 Z0.0000 F240
G01 Z-1.0000
G01 Y244.1516 F2400
G00 Z8.0000 F


(No. 324: Engraving 180)
G00 X266.7235 Y231.4516 Z8.0000 F4000
G00 Z0.5000 F
G01 Z0.0000 F240
G01 Z-1.0000
G01 Y244.1516 F2400
G00 Z8.0000 F


(No. 325: Engraving 586)
G00 X292.1235 Y231.4516 Z8.0000 F4000
G00 Z0.5000 F
G01 Z0.0000 F240
G01 Z-1.0000
G01 Y244.1516 F2400
G00 Z8.0000 F


(No. 326: Engraving 587)
G00 X304.8235 Y244.1516 Z8.0000 F4000
G00 Z0.5000 F
G01 Z0.0000 F240
G01 Z-1.0000
G01 Y256.8516 F2400
G01 X279.4235
G00 Z8.0000 F


(No. 327: Engraving 584)
G00 X317.5235 Y256.8516 Z8.0000 F4000
G00 Z0.5000 F
G01 Z0.0000 F240
G01 Z-1.0000
G01 Y269.5516 F2400
G00 Z8.0000 F


(No. 328: Engraving 10)
G00 X330.2235 Y269.5516 Z8.0000 F4000
G00 Z0.5000 F
G01 Z0.0000 F240
G01 Z-1.0000
G01 X-330.1765 F2400
G01 Y282.2516
G01 X-304.7765
G01 Y269.5516
G00 Z8.0000 F


(No. 329: Engraving 531)
G00 X-317.4765 Y2.8516 Z8.0000 F4000
G00 Z0.5000 F
G01 Z0.0000 F240
G01 Z-1.0000
G01 Y15.5516 F2400
G00 Z8.0000 F


(No. 330: Engraving 514)
G00 X88.9235 Y28.2516 Z8.0000 F4000
G00 Z0.5000 F
G01 Z0.0000 F240
G01 Z-1.0000
G01 Y40.9516 F2400
G00 Z8.0000 F


(No. 331: Engraving 466)
G00 X88.9235 Y53.6516 Z8.0000 F4000
G00 Z0.5000 F
G01 Z0.0000 F240
G01 Z-1.0000
G01 Y66.3516 F2400
G00 Z8.0000 F


(No. 332: Engraving 418)
G00 X88.9235 Y79.0516 Z8.0000 F4000
G00 Z0.5000 F
G01 Z0.0000 F240
G01 Z-1.0000
G01 Y91.7516 F2400
G00 Z8.0000 F


(No. 333: Engraving 370)
G00 X88.9235 Y104.4516 Z8.0000 F4000
G00 Z0.5000 F
G01 Z0.0000 F240
G01 Z-1.0000
G01 Y117.1516 F2400
G00 Z8.0000 F


(No. 334: Engraving 322)
G00 X88.9235 Y129.8516 Z8.0000 F4000
G00 Z0.5000 F
G01 Z0.0000 F240
G01 Z-1.0000
G01 Y142.5516 F2400
G00 Z8.0000 F


(No. 335: Engraving 274)
G00 X88.9235 Y155.2516 Z8.0000 F4000
G00 Z0.5000 F
G01 Z0.0000 F240
G01 Z-1.0000
G01 Y167.9516 F2400
G00 Z8.0000 F


(No. 336: Engraving 273)
G00 X76.2235 Y167.9516 Z8.0000 F4000
G00 Z0.5000 F
G01 Z0.0000 F240
G01 Z-1.0000
G01 Y180.6516 F2400
G01 X50.8235
G00 Z8.0000 F


(No. 337: Engraving 237)
G00 X76.2235 Y193.3516 Z8.0000 F4000
G00 Z0.5000 F
G01 Z0.0000 F240
G01 Z-1.0000
G01 Y206.0516 F2400
G01 X50.8235
G00 Z8.0000 F


(No. 338: Engraving 200)
G00 X63.5235 Y206.0516 Z8.0000 F4000
G00 Z0.5000 F
G01 Z0.0000 F240
G01 Z-1.0000
G01 Y218.7516 F2400
G00 Z8.0000 F


(No. 339: Engraving 201)
G00 X76.2235 Y218.7516 Z8.0000 F4000
G00 Z0.5000 F
G01 Z0.0000 F240
G01 Z-1.0000
G01 Y231.4516 F2400
G01 X50.8235
G00 Z8.0000 F


(No. 340: Engraving 202)
G00 X88.9235 Y206.0516 Z8.0000 F4000
G00 Z0.5000 F
G01 Z0.0000 F240
G01 Z-1.0000
G01 Y218.7516 F2400
G00 Z8.0000 F


(No. 341: Engraving 203)
G00 X101.6235 Y218.7516 Z8.0000 F4000
G00 Z0.5000 F
G01 Z0.0000 F240
G01 Z-1.0000
G01 Y231.4516 F2400
G01 X76.2235
G00 Z8.0000 F


(No. 342: Engraving 204)
G00 X114.3235 Y206.0516 Z8.0000 F4000
G00 Z0.5000 F
G01 Z0.0000 F240
G01 Z-1.0000
G01 Y218.7516 F2400
G00 Z8.0000 F


(No. 343: Engraving 205)
G00 X127.0235 Y218.7516 Z8.0000 F4000
G00 Z0.5000 F
G01 Z0.0000 F240
G01 Z-1.0000
G01 Y231.4516 F2400
G01 X101.6235
G00 Z8.0000 F


(No. 344: Engraving 239)
G00 X101.6235 Y193.3516 Z8.0000 F4000
G00 Z0.5000 F
G01 Z0.0000 F240
G01 Z-1.0000
G01 Y206.0516 F2400
G01 X76.2235
G00 Z8.0000 F


(No. 345: Engraving 238)
G00 X88.9235 Y180.6516 Z8.0000 F4000
G00 Z0.5000 F
G01 Z0.0000 F240
G01 Z-1.0000
G01 Y193.3516 F2400
G00 Z8.0000 F


(No. 346: Engraving 240)
G00 X114.3235 Y180.6516 Z8.0000 F4000
G00 Z0.5000 F
G01 Z0.0000 F240
G01 Z-1.0000
G01 Y193.3516 F2400
G00 Z8.0000 F


(No. 347: Engraving 241)
G00 X127.0235 Y193.3516 Z8.0000 F4000
G00 Z0.5000 F
G01 Z0.0000 F240
G01 Z-1.0000
G01 Y206.0516 F2400
G01 X101.6235
G00 Z8.0000 F


(No. 348: Engraving 206)
G00 X139.7235 Y206.0516 Z8.0000 F4000
G00 Z0.5000 F
G01 Z0.0000 F240
G01 Z-1.0000
G01 Y218.7516 F2400
G00 Z8.0000 F


(No. 349: Engraving 207)
G00 X152.4235 Y218.7516 Z8.0000 F4000
G00 Z0.5000 F
G01 Z0.0000 F240
G01 Z-1.0000
G01 Y231.4516 F2400
G01 X127.0235
G00 Z8.0000 F


(No. 350: Engraving 208)
G00 X165.1235 Y206.0516 Z8.0000 F4000
G00 Z0.5000 F
G01 Z0.0000 F240
G01 Z-1.0000
G01 Y218.7516 F2400
G00 Z8.0000 F


(No. 351: Engraving 209)
G00 X177.8235 Y218.7516 Z8.0000 F4000
G00 Z0.5000 F
G01 Z0.0000 F240
G01 Z-1.0000
G01 Y231.4516 F2400
G01 X152.4235
G00 Z8.0000 F


(No. 352: Engraving 243)
G00 X152.4235 Y193.3516 Z8.0000 F4000
G00 Z0.5000 F
G01 Z0.0000 F240
G01 Z-1.0000
G01 Y206.0516 F2400
G01 X127.0235
G00 Z8.0000 F


(No. 353: Engraving 242)
G00 X139.7235 Y180.6516 Z8.0000 F4000
G00 Z0.5000 F
G01 Z0.0000 F240
G01 Z-1.0000
G01 Y193.3516 F2400
G00 Z8.0000 F


(No. 354: Engraving 244)
G00 X165.1235 Y180.6516 Z8.0000 F4000
G00 Z0.5000 F
G01 Z0.0000 F240
G01 Z-1.0000
G01 Y193.3516 F2400
G00 Z8.0000 F


(No. 355: Engraving 245)
G00 X177.8235 Y193.3516 Z8.0000 F4000
G00 Z0.5000 F
G01 Z0.0000 F240
G01 Z-1.0000
G01 Y206.0516 F2400
G01 X152.4235
G00 Z8.0000 F


(No. 356: Engraving 210)
G00 X190.5235 Y206.0516 Z8.0000 F4000
G00 Z0.5000 F
G01 Z0.0000 F240
G01 Z-1.0000
G01 Y218.7516 F2400
G00 Z8.0000 F


(No. 357: Engraving 211)
G00 X203.2235 Y218.7516 Z8.0000 F4000
G00 Z0.5000 F
G01 Z0.0000 F240
G01 Z-1.0000
G01 Y231.4516 F2400
G01 X177.8235
G00 Z8.0000 F


(No. 358: Engraving 212)
G00 X215.9235 Y206.0516 Z8.0000 F4000
G00 Z0.5000 F
G01 Z0.0000 F240
G01 Z-1.0000
G01 Y218.7516 F2400
G00 Z8.0000 F


(No. 359: Engraving 213)
G00 X228.6235 Y218.7516 Z8.0000 F4000
G00 Z0.5000 F
G01 Z0.0000 F240
G01 Z-1.0000
G01 Y231.4516 F2400
G01 X203.2235
G00 Z8.0000 F


(No. 360: Engraving 247)
G00 X203.2235 Y193.3516 Z8.0000 F4000
G00 Z0.5000 F
G01 Z0.0000 F240
G01 Z-1.0000
G01 Y206.0516 F2400
G01 X177.8235
G00 Z8.0000 F


(No. 361: Engraving 246)
G00 X190.5235 Y180.6516 Z8.0000 F4000
G00 Z0.5000 F
G01 Z0.0000 F240
G01 Z-1.0000
G01 Y193.3516 F2400
G00 Z8.0000 F


(No. 362: Engraving 281)
G00 X177.8235 Y167.9516 Z8.0000 F4000
G00 Z0.5000 F
G01 Z0.0000 F240
G01 Z-1.0000
G01 Y180.6516 F2400
G01 X152.4235
G00 Z8.0000 F


(No. 363: Engraving 279)
G00 X152.4235 Y167.9516 Z8.0000 F4000
G00 Z0.5000 F
G01 Z0.0000 F240
G01 Z-1.0000
G01 Y180.6516 F2400
G01 X127.0235
G00 Z8.0000 F


(No. 364: Engraving 277)
G00 X127.0235 Y167.9516 Z8.0000 F4000
G00 Z0.5000 F
G01 Z0.0000 F240
G01 Z-1.0000
G01 Y180.6516 F2400
G01 X101.6235
G00 Z8.0000 F


(No. 365: Engraving 275)
G00 X101.6235 Y167.9516 Z8.0000 F4000
G00 Z0.5000 F
G01 Z0.0000 F240
G01 Z-1.0000
G01 Y180.6516 F2400
G01 X76.2235
G00 Z8.0000 F


(No. 366: Engraving 276)
G00 X114.3235 Y155.2516 Z8.0000 F4000
G00 Z0.5000 F
G01 Z0.0000 F240
G01 Z-1.0000
G01 Y167.9516 F2400
G00 Z8.0000 F


(No. 367: Engraving 323)
G00 X101.6235 Y142.5516 Z8.0000 F4000
G00 Z0.5000 F
G01 Z0.0000 F240
G01 Z-1.0000
G01 Y155.2516 F2400
G01 X76.2235
G00 Z8.0000 F


(No. 368: Engraving 324)
G00 X114.3235 Y129.8516 Z8.0000 F4000
G00 Z0.5000 F
G01 Z0.0000 F240
G01 Z-1.0000
G01 Y142.5516 F2400
G00 Z8.0000 F


(No. 369: Engraving 325)
G00 X127.0235 Y142.5516 Z8.0000 F4000
G00 Z0.5000 F
G01 Z0.0000 F240
G01 Z-1.0000
G01 Y155.2516 F2400
G01 X101.6235
G00 Z8.0000 F


(No. 370: Engraving 278)
G00 X139.7235 Y155.2516 Z8.0000 F4000
G00 Z0.5000 F
G01 Z0.0000 F240
G01 Z-1.0000
G01 Y167.9516 F2400
G00 Z8.0000 F


(No. 371: Engraving 327)
G00 X152.4235 Y142.5516 Z8.0000 F4000
G00 Z0.5000 F
G01 Z0.0000 F240
G01 Z-1.0000
G01 Y155.2516 F2400
G01 X127.0235
G00 Z8.0000 F


(No. 372: Engraving 326)
G00 X139.7235 Y129.8516 Z8.0000 F4000
G00 Z0.5000 F
G01 Z0.0000 F240
G01 Z-1.0000
G01 Y142.5516 F2400
G00 Z8.0000 F


(No. 373: Engraving 328)
G00 X165.1235 Y129.8516 Z8.0000 F4000
G00 Z0.5000 F
G01 Z0.0000 F240
G01 Z-1.0000
G01 Y142.5516 F2400
G00 Z8.0000 F


(No. 374: Engraving 280)
G00 X165.1235 Y155.2516 Z8.0000 F4000
G00 Z0.5000 F
G01 Z0.0000 F240
G01 Z-1.0000
G01 Y167.9516 F2400
G00 Z8.0000 F


(No. 375: Engraving 282)
G00 X190.5235 Y155.2516 Z8.0000 F4000
G00 Z0.5000 F
G01 Z0.0000 F240
G01 Z-1.0000
G01 Y167.9516 F2400
G00 Z8.0000 F


(No. 376: Engraving 283)
G00 X203.2235 Y167.9516 Z8.0000 F4000
G00 Z0.5000 F
G01 Z0.0000 F240
G01 Z-1.0000
G01 Y180.6516 F2400
G01 X177.8235
G00 Z8.0000 F


(No. 377: Engraving 248)
G00 X215.9235 Y180.6516 Z8.0000 F4000
G00 Z0.5000 F
G01 Z0.0000 F240
G01 Z-1.0000
G01 Y193.3516 F2400
G00 Z8.0000 F


(No. 378: Engraving 249)
G00 X228.6235 Y193.3516 Z8.0000 F4000
G00 Z0.5000 F
G01 Z0.0000 F240
G01 Z-1.0000
G01 Y206.0516 F2400
G01 X203.2235
G00 Z8.0000 F


(No. 379: Engraving 214)
G00 X241.3235 Y206.0516 Z8.0000 F4000
G00 Z0.5000 F
G01 Z0.0000 F240
G01 Z-1.0000
G01 Y218.7516 F2400
G00 Z8.0000 F


(No. 380: Engraving 215)
G00 X254.0235 Y218.7516 Z8.0000 F4000
G00 Z0.5000 F
G01 Z0.0000 F240
G01 Z-1.0000
G01 Y231.4516 F2400
G01 X228.6235
G00 Z8.0000 F


(No. 381: Engraving 216)
G00 X266.7235 Y206.0516 Z8.0000 F4000
G00 Z0.5000 F
G01 Z0.0000 F240
G01 Z-1.0000
G01 Y218.7516 F2400
G00 Z8.0000 F


(No. 382: Engraving 217)
G00 X279.4235 Y218.7516 Z8.0000 F4000
G00 Z0.5000 F
G01 Z0.0000 F240
G01 Z-1.0000
G01 Y231.4516 F2400
G01 X254.0235
G00 Z8.0000 F


(No. 383: Engraving 251)
G00 X254.0235 Y193.3516 Z8.0000 F4000
G00 Z0.5000 F
G01 Z0.0000 F240
G01 Z-1.0000
G01 Y206.0516 F2400
G01 X228.6235
G00 Z8.0000 F


(No. 384: Engraving 250)
G00 X241.3235 Y180.6516 Z8.0000 F4000
G00 Z0.5000 F
G01 Z0.0000 F240
G01 Z-1.0000
G01 Y193.3516 F2400
G00 Z8.0000 F


(No. 385: Engraving 252)
G00 X266.7235 Y180.6516 Z8.0000 F4000
G00 Z0.5000 F
G01 Z0.0000 F240
G01 Z-1.0000
G01 Y193.3516 F2400
G00 Z8.0000 F


(No. 386: Engraving 253)
G00 X279.4235 Y193.3516 Z8.0000 F4000
G00 Z0.5000 F
G01 Z0.0000 F240
G01 Z-1.0000
G01 Y206.0516 F2400
G01 X254.0235
G00 Z8.0000 F


(No. 387: Engraving 590)
G00 X292.1235 Y206.0516 Z8.0000 F4000
G00 Z0.5000 F
G01 Z0.0000 F240
G01 Z-1.0000
G01 Y218.7516 F2400
G00 Z8.0000 F


(No. 388: Engraving 591)
G00 X304.8235 Y218.7516 Z8.0000 F4000
G00 Z0.5000 F
G01 Z0.0000 F240
G01 Z-1.0000
G01 Y231.4516 F2400
G01 X279.4235
G00 Z8.0000 F


(No. 389: Engraving 588)
G00 X317.5235 Y231.4516 Z8.0000 F4000
G00 Z0.5000 F
G01 Z0.0000 F240
G01 Z-1.0000
G01 Y244.1516 F2400
G00 Z8.0000 F


(No. 390: Engraving 18)
G00 X330.2235 Y244.1516 Z8.0000 F4000
G00 Z0.5000 F
G01 Z0.0000 F240
G01 Z-1.0000
G01 X-330.1765 F2400
G01 Y256.8516
G01 X-304.7765
G01 Y244.1516
G00 Z8.0000 F


(No. 391: Engraving 371)
G00 X101.6235 Y117.1516 Z8.0000 F4000
G00 Z0.5000 F
G01 Z0.0000 F240
G01 Z-1.0000
G01 Y129.8516 F2400
G01 X76.2235
G00 Z8.0000 F


(No. 392: Engraving 372)
G00 X114.3235 Y104.4516 Z8.0000 F4000
G00 Z0.5000 F
G01 Z0.0000 F240
G01 Z-1.0000
G01 Y117.1516 F2400
G00 Z8.0000 F


(No. 393: Engraving 373)
G00 X127.0235 Y117.1516 Z8.0000 F4000
G00 Z0.5000 F
G01 Z0.0000 F240
G01 Z-1.0000
G01 Y129.8516 F2400
G01 X101.6235
G00 Z8.0000 F


(No. 394: Engraving 419)
G00 X101.6235 Y91.7516 Z8.0000 F4000
G00 Z0.5000 F
G01 Z0.0000 F240
G01 Z-1.0000
G01 Y104.4516 F2400
G01 X76.2235
G00 Z8.0000 F


(No. 395: Engraving 420)
G00 X114.3235 Y79.0516 Z8.0000 F4000
G00 Z0.5000 F
G01 Z0.0000 F240
G01 Z-1.0000
G01 Y91.7516 F2400
G00 Z8.0000 F


(No. 396: Engraving 421)
G00 X127.0235 Y91.7516 Z8.0000 F4000
G00 Z0.5000 F
G01 Z0.0000 F240
G01 Z-1.0000
G01 Y104.4516 F2400
G01 X101.6235
G00 Z8.0000 F


(No. 397: Engraving 374)
G00 X139.7235 Y104.4516 Z8.0000 F4000
G00 Z0.5000 F
G01 Z0.0000 F240
G01 Z-1.0000
G01 Y117.1516 F2400
G00 Z8.0000 F


(No. 398: Engraving 375)
G00 X152.4235 Y117.1516 Z8.0000 F4000
G00 Z0.5000 F
G01 Z0.0000 F240
G01 Z-1.0000
G01 Y129.8516 F2400
G01 X127.0235
G00 Z8.0000 F


(No. 399: Engraving 376)
G00 X165.1235 Y104.4516 Z8.0000 F4000
G00 Z0.5000 F
G01 Z0.0000 F240
G01 Z-1.0000
G01 Y117.1516 F2400
G00 Z8.0000 F


(No. 400: Engraving 377)
G00 X177.8235 Y117.1516 Z8.0000 F4000
G00 Z0.5000 F
G01 Z0.0000 F240
G01 Z-1.0000
G01 Y129.8516 F2400
G01 X152.4235
G00 Z8.0000 F


(No. 401: Engraving 329)
G00 X177.8235 Y142.5516 Z8.0000 F4000
G00 Z0.5000 F
G01 Z0.0000 F240
G01 Z-1.0000
G01 Y155.2516 F2400
G01 X152.4235
G00 Z8.0000 F


(No. 402: Engraving 330)
G00 X190.5235 Y129.8516 Z8.0000 F4000
G00 Z0.5000 F
G01 Z0.0000 F240
G01 Z-1.0000
G01 Y142.5516 F2400
G00 Z8.0000 F


(No. 403: Engraving 331)
G00 X203.2235 Y142.5516 Z8.0000 F4000
G00 Z0.5000 F
G01 Z0.0000 F240
G01 Z-1.0000
G01 Y155.2516 F2400
G01 X177.8235
G00 Z8.0000 F


(No. 404: Engraving 284)
G00 X215.9235 Y155.2516 Z8.0000 F4000
G00 Z0.5000 F
G01 Z0.0000 F240
G01 Z-1.0000
G01 Y167.9516 F2400
G00 Z8.0000 F


(No. 405: Engraving 285)
G00 X228.6235 Y167.9516 Z8.0000 F4000
G00 Z0.5000 F
G01 Z0.0000 F240
G01 Z-1.0000
G01 Y180.6516 F2400
G01 X203.2235
G00 Z8.0000 F


(No. 406: Engraving 286)
G00 X241.3235 Y155.2516 Z8.0000 F4000
G00 Z0.5000 F
G01 Z0.0000 F240
G01 Z-1.0000
G01 Y167.9516 F2400
G00 Z8.0000 F


(No. 407: Engraving 287)
G00 X254.0235 Y167.9516 Z8.0000 F4000
G00 Z0.5000 F
G01 Z0.0000 F240
G01 Z-1.0000
G01 Y180.6516 F2400
G01 X228.6235
G00 Z8.0000 F


(No. 408: Engraving 333)
G00 X228.6235 Y142.5516 Z8.0000 F4000
G00 Z0.5000 F
G01 Z0.0000 F240
G01 Z-1.0000
G01 Y155.2516 F2400
G01 X203.2235
G00 Z8.0000 F


(No. 409: Engraving 332)
G00 X215.9235 Y129.8516 Z8.0000 F4000
G00 Z0.5000 F
G01 Z0.0000 F240
G01 Z-1.0000
G01 Y142.5516 F2400
G00 Z8.0000 F


(No. 410: Engraving 334)
G00 X241.3235 Y129.8516 Z8.0000 F4000
G00 Z0.5000 F
G01 Z0.0000 F240
G01 Z-1.0000
G01 Y142.5516 F2400
G00 Z8.0000 F


(No. 411: Engraving 335)
G00 X254.0235 Y142.5516 Z8.0000 F4000
G00 Z0.5000 F
G01 Z0.0000 F240
G01 Z-1.0000
G01 Y155.2516 F2400
G01 X228.6235
G00 Z8.0000 F


(No. 412: Engraving 288)
G00 X266.7235 Y155.2516 Z8.0000 F4000
G00 Z0.5000 F
G01 Z0.0000 F240
G01 Z-1.0000
G01 Y167.9516 F2400
G00 Z8.0000 F


(No. 413: Engraving 289)
G00 X279.4235 Y167.9516 Z8.0000 F4000
G00 Z0.5000 F
G01 Z0.0000 F240
G01 Z-1.0000
G01 Y180.6516 F2400
G01 X254.0235
G00 Z8.0000 F


(No. 414: Engraving 594)
G00 X292.1235 Y180.6516 Z8.0000 F4000
G00 Z0.5000 F
G01 Z0.0000 F240
G01 Z-1.0000
G01 Y193.3516 F2400
G00 Z8.0000 F


(No. 415: Engraving 595)
G00 X304.8235 Y193.3516 Z8.0000 F4000
G00 Z0.5000 F
G01 Z0.0000 F240
G01 Z-1.0000
G01 Y206.0516 F2400
G01 X279.4235
G00 Z8.0000 F


(No. 416: Engraving 592)
G00 X317.5235 Y206.0516 Z8.0000 F4000
G00 Z0.5000 F
G01 Z0.0000 F240
G01 Z-1.0000
G01 Y218.7516 F2400
G00 Z8.0000 F


(No. 417: Engraving 26)
G00 X330.2235 Y218.7516 Z8.0000 F4000
G00 Z0.5000 F
G01 Z0.0000 F240
G01 Z-1.0000
G01 X-330.1765 F2400
G01 Y231.4516
G01 X-304.7765
G01 Y218.7516
G00 Z8.0000 F


(No. 418: Engraving 467)
G00 X101.6235 Y66.3516 Z8.0000 F4000
G00 Z0.5000 F
G01 Z0.0000 F240
G01 Z-1.0000
G01 Y79.0516 F2400
G01 X76.2235
G00 Z8.0000 F


(No. 419: Engraving 468)
G00 X114.3235 Y53.6516 Z8.0000 F4000
G00 Z0.5000 F
G01 Z0.0000 F240
G01 Z-1.0000
G01 Y66.3516 F2400
G00 Z8.0000 F


(No. 420: Engraving 469)
G00 X127.0235 Y66.3516 Z8.0000 F4000
G00 Z0.5000 F
G01 Z0.0000 F240
G01 Z-1.0000
G01 Y79.0516 F2400
G01 X101.6235
G00 Z8.0000 F


(No. 421: Engraving 422)
G00 X139.7235 Y79.0516 Z8.0000 F4000
G00 Z0.5000 F
G01 Z0.0000 F240
G01 Z-1.0000
G01 Y91.7516 F2400
G00 Z8.0000 F


(No. 422: Engraving 423)
G00 X152.4235 Y91.7516 Z8.0000 F4000
G00 Z0.5000 F
G01 Z0.0000 F240
G01 Z-1.0000
G01 Y104.4516 F2400
G01 X127.0235
G00 Z8.0000 F


(No. 423: Engraving 471)
G00 X152.4235 Y66.3516 Z8.0000 F4000
G00 Z0.5000 F
G01 Z0.0000 F240
G01 Z-1.0000
G01 Y79.0516 F2400
G01 X127.0235
G00 Z8.0000 F


(No. 424: Engraving 470)
G00 X139.7235 Y53.6516 Z8.0000 F4000
G00 Z0.5000 F
G01 Z0.0000 F240
G01 Z-1.0000
G01 Y66.3516 F2400
G00 Z8.0000 F


(No. 425: Engraving 472)
G00 X165.1235 Y53.6516 Z8.0000 F4000
G00 Z0.5000 F
G01 Z0.0000 F240
G01 Z-1.0000
G01 Y66.3516 F2400
G00 Z8.0000 F


(No. 426: Engraving 424)
G00 X165.1235 Y79.0516 Z8.0000 F4000
G00 Z0.5000 F
G01 Z0.0000 F240
G01 Z-1.0000
G01 Y91.7516 F2400
G00 Z8.0000 F


(No. 427: Engraving 425)
G00 X177.8235 Y91.7516 Z8.0000 F4000
G00 Z0.5000 F
G01 Z0.0000 F240
G01 Z-1.0000
G01 Y104.4516 F2400
G01 X152.4235
G00 Z8.0000 F


(No. 428: Engraving 378)
G00 X190.5235 Y104.4516 Z8.0000 F4000
G00 Z0.5000 F
G01 Z0.0000 F240
G01 Z-1.0000
G01 Y117.1516 F2400
G00 Z8.0000 F


(No. 429: Engraving 379)
G00 X203.2235 Y117.1516 Z8.0000 F4000
G00 Z0.5000 F
G01 Z0.0000 F240
G01 Z-1.0000
G01 Y129.8516 F2400
G01 X177.8235
G00 Z8.0000 F


(No. 430: Engraving 380)
G00 X215.9235 Y104.4516 Z8.0000 F4000
G00 Z0.5000 F
G01 Z0.0000 F240
G01 Z-1.0000
G01 Y117.1516 F2400
G00 Z8.0000 F


(No. 431: Engraving 381)
G00 X228.6235 Y117.1516 Z8.0000 F4000
G00 Z0.5000 F
G01 Z0.0000 F240
G01 Z-1.0000
G01 Y129.8516 F2400
G01 X203.2235
G00 Z8.0000 F


(No. 432: Engraving 427)
G00 X203.2235 Y91.7516 Z8.0000 F4000
G00 Z0.5000 F
G01 Z0.0000 F240
G01 Z-1.0000
G01 Y104.4516 F2400
G01 X177.8235
G00 Z8.0000 F


(No. 433: Engraving 426)
G00 X190.5235 Y79.0516 Z8.0000 F4000
G00 Z0.5000 F
G01 Z0.0000 F240
G01 Z-1.0000
G01 Y91.7516 F2400
G00 Z8.0000 F


(No. 434: Engraving 473)
G00 X177.8235 Y66.3516 Z8.0000 F4000
G00 Z0.5000 F
G01 Z0.0000 F240
G01 Z-1.0000
G01 Y79.0516 F2400
G01 X152.4235
G00 Z8.0000 F


(No. 435: Engraving 519)
G00 X152.4235 Y40.9516 Z8.0000 F4000
G00 Z0.5000 F
G01 Z0.0000 F240
G01 Z-1.0000
G01 Y53.6516 F2400
G01 X127.0235
G00 Z8.0000 F


(No. 436: Engraving 517)
G00 X127.0235 Y40.9516 Z8.0000 F4000
G00 Z0.5000 F
G01 Z0.0000 F240
G01 Z-1.0000
G01 Y53.6516 F2400
G01 X101.6235
G00 Z8.0000 F


(No. 437: Engraving 515)
G00 X101.6235 Y40.9516 Z8.0000 F4000
G00 Z0.5000 F
G01 Z0.0000 F240
G01 Z-1.0000
G01 Y53.6516 F2400
G01 X76.2235
G00 Z8.0000 F


(No. 438: Engraving 516)
G00 X114.3235 Y28.2516 Z8.0000 F4000
G00 Z0.5000 F
G01 Z0.0000 F240
G01 Z-1.0000
G01 Y40.9516 F2400
G00 Z8.0000 F


(No. 439: Engraving 563)
G00 X101.6235 Y15.5516 Z8.0000 F4000
G00 Z0.5000 F
G01 Z0.0000 F240
G01 Z-1.0000
G01 Y28.2516 F2400
G01 X76.2235
G00 Z8.0000 F


(No. 440: Engraving 562)
G00 X88.9235 Y2.8516 Z8.0000 F4000
G00 Z0.5000 F
G01 Z0.0000 F240
G01 Z-1.0000
G01 Y15.5516 F2400
G00 Z8.0000 F


(No. 441: Engraving 564)
G00 X114.3235 Y2.8516 Z8.0000 F4000
G00 Z0.5000 F
G01 Z0.0000 F240
G01 Z-1.0000
G01 Y15.5516 F2400
G00 Z8.0000 F


(No. 442: Engraving 565)
G00 X127.0235 Y15.5516 Z8.0000 F4000
G00 Z0.5000 F
G01 Z0.0000 F240
G01 Z-1.0000
G01 Y28.2516 F2400
G01 X101.6235
G00 Z8.0000 F


(No. 443: Engraving 518)
G00 X139.7235 Y28.2516 Z8.0000 F4000
G00 Z0.5000 F
G01 Z0.0000 F240
G01 Z-1.0000
G01 Y40.9516 F2400
G00 Z8.0000 F


(No. 444: Engraving 567)
G00 X152.4235 Y15.5516 Z8.0000 F4000
G00 Z0.5000 F
G01 Z0.0000 F240
G01 Z-1.0000
G01 Y28.2516 F2400
G01 X127.0235
G00 Z8.0000 F


(No. 445: Engraving 566)
G00 X139.7235 Y2.8516 Z8.0000 F4000
G00 Z0.5000 F
G01 Z0.0000 F240
G01 Z-1.0000
G01 Y15.5516 F2400
G00 Z8.0000 F


(No. 446: Engraving 520)
G00 X165.1235 Y28.2516 Z8.0000 F4000
G00 Z0.5000 F
G01 Z0.0000 F240
G01 Z-1.0000
G01 Y40.9516 F2400
G00 Z8.0000 F


(No. 447: Engraving 521)
G00 X177.8235 Y40.9516 Z8.0000 F4000
G00 Z0.5000 F
G01 Z0.0000 F240
G01 Z-1.0000
G01 Y53.6516 F2400
G01 X152.4235
G00 Z8.0000 F


(No. 448: Engraving 474)
G00 X190.5235 Y53.6516 Z8.0000 F4000
G00 Z0.5000 F
G01 Z0.0000 F240
G01 Z-1.0000
G01 Y66.3516 F2400
G00 Z8.0000 F


(No. 449: Engraving 475)
G00 X203.2235 Y66.3516 Z8.0000 F4000
G00 Z0.5000 F
G01 Z0.0000 F240
G01 Z-1.0000
G01 Y79.0516 F2400
G01 X177.8235
G00 Z8.0000 F


(No. 450: Engraving 428)
G00 X215.9235 Y79.0516 Z8.0000 F4000
G00 Z0.5000 F
G01 Z0.0000 F240
G01 Z-1.0000
G01 Y91.7516 F2400
G00 Z8.0000 F


(No. 451: Engraving 429)
G00 X228.6235 Y91.7516 Z8.0000 F4000
G00 Z0.5000 F
G01 Z0.0000 F240
G01 Z-1.0000
G01 Y104.4516 F2400
G01 X203.2235
G00 Z8.0000 F


(No. 452: Engraving 382)
G00 X241.3235 Y104.4516 Z8.0000 F4000
G00 Z0.5000 F
G01 Z0.0000 F240
G01 Z-1.0000
G01 Y117.1516 F2400
G00 Z8.0000 F


(No. 453: Engraving 383)
G00 X254.0235 Y117.1516 Z8.0000 F4000
G00 Z0.5000 F
G01 Z0.0000 F240
G01 Z-1.0000
G01 Y129.8516 F2400
G01 X228.6235
G00 Z8.0000 F


(No. 454: Engraving 336)
G00 X266.7235 Y129.8516 Z8.0000 F4000
G00 Z0.5000 F
G01 Z0.0000 F240
G01 Z-1.0000
G01 Y142.5516 F2400
G00 Z8.0000 F


(No. 455: Engraving 337)
G00 X279.4235 Y142.5516 Z8.0000 F4000
G00 Z0.5000 F
G01 Z0.0000 F240
G01 Z-1.0000
G01 Y155.2516 F2400
G01 X254.0235
G00 Z8.0000 F


(No. 456: Engraving 598)
G00 X292.1235 Y155.2516 Z8.0000 F4000
G00 Z0.5000 F
G01 Z0.0000 F240
G01 Z-1.0000
G01 Y167.9516 F2400
G00 Z8.0000 F


(No. 457: Engraving 599)
G00 X304.8235 Y167.9516 Z8.0000 F4000
G00 Z0.5000 F
G01 Z0.0000 F240
G01 Z-1.0000
G01 Y180.6516 F2400
G01 X279.4235
G00 Z8.0000 F


(No. 458: Engraving 596)
G00 X317.5235 Y180.6516 Z8.0000 F4000
G00 Z0.5000 F
G01 Z0.0000 F240
G01 Z-1.0000
G01 Y193.3516 F2400
G00 Z8.0000 F


(No. 459: Engraving 34)
G00 X330.2235 Y193.3516 Z8.0000 F4000
G00 Z0.5000 F
G01 Z0.0000 F240
G01 Z-1.0000
G01 X-330.1765 F2400
G01 Y206.0516
G01 X-304.7765
G01 Y193.3516
G00 Z8.0000 F


(No. 460: Engraving 568)
G00 X165.1235 Y2.8516 Z8.0000 F4000
G00 Z0.5000 F
G01 Z0.0000 F240
G01 Z-1.0000
G01 Y15.5516 F2400
G00 Z8.0000 F


(No. 461: Engraving 569)
G00 X177.8235 Y15.5516 Z8.0000 F4000
G00 Z0.5000 F
G01 Z0.0000 F240
G01 Z-1.0000
G01 Y28.2516 F2400
G01 X152.4235
G00 Z8.0000 F


(No. 462: Engraving 522)
G00 X190.5235 Y28.2516 Z8.0000 F4000
G00 Z0.5000 F
G01 Z0.0000 F240
G01 Z-1.0000
G01 Y40.9516 F2400
G00 Z8.0000 F


(No. 463: Engraving 523)
G00 X203.2235 Y40.9516 Z8.0000 F4000
G00 Z0.5000 F
G01 Z0.0000 F240
G01 Z-1.0000
G01 Y53.6516 F2400
G01 X177.8235
G00 Z8.0000 F


(No. 464: Engraving 476)
G00 X215.9235 Y53.6516 Z8.0000 F4000
G00 Z0.5000 F
G01 Z0.0000 F240
G01 Z-1.0000
G01 Y66.3516 F2400
G00 Z8.0000 F


(No. 465: Engraving 477)
G00 X228.6235 Y66.3516 Z8.0000 F4000
G00 Z0.5000 F
G01 Z0.0000 F240
G01 Z-1.0000
G01 Y79.0516 F2400
G01 X203.2235
G00 Z8.0000 F


(No. 466: Engraving 430)
G00 X241.3235 Y79.0516 Z8.0000 F4000
G00 Z0.5000 F
G01 Z0.0000 F240
G01 Z-1.0000
G01 Y91.7516 F2400
G00 Z8.0000 F


(No. 467: Engraving 431)
G00 X254.0235 Y91.7516 Z8.0000 F4000
G00 Z0.5000 F
G01 Z0.0000 F240
G01 Z-1.0000
G01 Y104.4516 F2400
G01 X228.6235
G00 Z8.0000 F


(No. 468: Engraving 384)
G00 X266.7235 Y104.4516 Z8.0000 F4000
G00 Z0.5000 F
G01 Z0.0000 F240
G01 Z-1.0000
G01 Y117.1516 F2400
G00 Z8.0000 F


(No. 469: Engraving 385)
G00 X279.4235 Y117.1516 Z8.0000 F4000
G00 Z0.5000 F
G01 Z0.0000 F240
G01 Z-1.0000
G01 Y129.8516 F2400
G01 X254.0235
G00 Z8.0000 F


(No. 470: Engraving 602)
G00 X292.1235 Y129.8516 Z8.0000 F4000
G00 Z0.5000 F
G01 Z0.0000 F240
G01 Z-1.0000
G01 Y142.5516 F2400
G00 Z8.0000 F


(No. 471: Engraving 603)
G00 X304.8235 Y142.5516 Z8.0000 F4000
G00 Z0.5000 F
G01 Z0.0000 F240
G01 Z-1.0000
G01 Y155.2516 F2400
G01 X279.4235
G00 Z8.0000 F


(No. 472: Engraving 600)
G00 X317.5235 Y155.2516 Z8.0000 F4000
G00 Z0.5000 F
G01 Z0.0000 F240
G01 Z-1.0000
G01 Y167.9516 F2400
G00 Z8.0000 F


(No. 473: Engraving 42)
G00 X330.2235 Y167.9516 Z8.0000 F4000
G00 Z0.5000 F
G01 Z0.0000 F240
G01 Z-1.0000
G01 X-330.1765 F2400
G01 Y180.6516
G01 X-304.7765
G01 Y167.9516
G00 Z8.0000 F


(No. 474: Engraving 570)
G00 X190.5235 Y2.8516 Z8.0000 F4000
G00 Z0.5000 F
G01 Z0.0000 F240
G01 Z-1.0000
G01 Y15.5516 F2400
G00 Z8.0000 F


(No. 475: Engraving 571)
G00 X203.2235 Y15.5516 Z8.0000 F4000
G00 Z0.5000 F
G01 Z0.0000 F240
G01 Z-1.0000
G01 Y28.2516 F2400
G01 X177.8235
G00 Z8.0000 F


(No. 476: Engraving 524)
G00 X215.9235 Y28.2516 Z8.0000 F4000
G00 Z0.5000 F
G01 Z0.0000 F240
G01 Z-1.0000
G01 Y40.9516 F2400
G00 Z8.0000 F


(No. 477: Engraving 525)
G00 X228.6235 Y40.9516 Z8.0000 F4000
G00 Z0.5000 F
G01 Z0.0000 F240
G01 Z-1.0000
G01 Y53.6516 F2400
G01 X203.2235
G00 Z8.0000 F


(No. 478: Engraving 478)
G00 X241.3235 Y53.6516 Z8.0000 F4000
G00 Z0.5000 F
G01 Z0.0000 F240
G01 Z-1.0000
G01 Y66.3516 F2400
G00 Z8.0000 F


(No. 479: Engraving 479)
G00 X254.0235 Y66.3516 Z8.0000 F4000
G00 Z0.5000 F
G01 Z0.0000 F240
G01 Z-1.0000
G01 Y79.0516 F2400
G01 X228.6235
G00 Z8.0000 F


(No. 480: Engraving 432)
G00 X266.7235 Y79.0516 Z8.0000 F4000
G00 Z0.5000 F
G01 Z0.0000 F240
G01 Z-1.0000
G01 Y91.7516 F2400
G00 Z8.0000 F


(No. 481: Engraving 433)
G00 X279.4235 Y91.7516 Z8.0000 F4000
G00 Z0.5000 F
G01 Z0.0000 F240
G01 Z-1.0000
G01 Y104.4516 F2400
G01 X254.0235
G00 Z8.0000 F


(No. 482: Engraving 606)
G00 X292.1235 Y104.4516 Z8.0000 F4000
G00 Z0.5000 F
G01 Z0.0000 F240
G01 Z-1.0000
G01 Y117.1516 F2400
G00 Z8.0000 F


(No. 483: Engraving 607)
G00 X304.8235 Y117.1516 Z8.0000 F4000
G00 Z0.5000 F
G01 Z0.0000 F240
G01 Z-1.0000
G01 Y129.8516 F2400
G01 X279.4235
G00 Z8.0000 F


(No. 484: Engraving 604)
G00 X317.5235 Y129.8516 Z8.0000 F4000
G00 Z0.5000 F
G01 Z0.0000 F240
G01 Z-1.0000
G01 Y142.5516 F2400
G00 Z8.0000 F


(No. 485: Engraving 290)
G00 X330.2235 Y142.5516 Z8.0000 F4000
G00 Z0.5000 F
G01 Z0.0000 F240
G01 Z-1.0000
G01 X-330.1765 F2400
G01 Y155.2516
G01 X-304.7765
G01 Y142.5516
G00 Z8.0000 F


(No. 486: Engraving 572)
G00 X215.9235 Y2.8516 Z8.0000 F4000
G00 Z0.5000 F
G01 Z0.0000 F240
G01 Z-1.0000
G01 Y15.5516 F2400
G00 Z8.0000 F


(No. 487: Engraving 573)
G00 X228.6235 Y15.5516 Z8.0000 F4000
G00 Z0.5000 F
G01 Z0.0000 F240
G01 Z-1.0000
G01 Y28.2516 F2400
G01 X203.2235
G00 Z8.0000 F


(No. 488: Engraving 526)
G00 X241.3235 Y28.2516 Z8.0000 F4000
G00 Z0.5000 F
G01 Z0.0000 F240
G01 Z-1.0000
G01 Y40.9516 F2400
G00 Z8.0000 F


(No. 489: Engraving 527)
G00 X254.0235 Y40.9516 Z8.0000 F4000
G00 Z0.5000 F
G01 Z0.0000 F240
G01 Z-1.0000
G01 Y53.6516 F2400
G01 X228.6235
G00 Z8.0000 F


(No. 490: Engraving 480)
G00 X266.7235 Y53.6516 Z8.0000 F4000
G00 Z0.5000 F
G01 Z0.0000 F240
G01 Z-1.0000
G01 Y66.3516 F2400
G00 Z8.0000 F


(No. 491: Engraving 481)
G00 X279.4235 Y66.3516 Z8.0000 F4000
G00 Z0.5000 F
G01 Z0.0000 F240
G01 Z-1.0000
G01 Y79.0516 F2400
G01 X254.0235
G00 Z8.0000 F


(No. 492: Engraving 610)
G00 X292.1235 Y79.0516 Z8.0000 F4000
G00 Z0.5000 F
G01 Z0.0000 F240
G01 Z-1.0000
G01 Y91.7516 F2400
G00 Z8.0000 F


(No. 493: Engraving 611)
G00 X304.8235 Y91.7516 Z8.0000 F4000
G00 Z0.5000 F
G01 Z0.0000 F240
G01 Z-1.0000
G01 Y104.4516 F2400
G01 X279.4235
G00 Z8.0000 F


(No. 494: Engraving 608)
G00 X317.5235 Y104.4516 Z8.0000 F4000
G00 Z0.5000 F
G01 Z0.0000 F240
G01 Z-1.0000
G01 Y117.1516 F2400
G00 Z8.0000 F


(No. 495: Engraving 338)
G00 X330.2235 Y117.1516 Z8.0000 F4000
G00 Z0.5000 F
G01 Z0.0000 F240
G01 Z-1.0000
G01 X-330.1765 F2400
G01 Y129.8516
G01 X-304.7765
G01 Y117.1516
G00 Z8.0000 F


(No. 496: Engraving 574)
G00 X241.3235 Y2.8516 Z8.0000 F4000
G00 Z0.5000 F
G01 Z0.0000 F240
G01 Z-1.0000
G01 Y15.5516 F2400
G00 Z8.0000 F


(No. 497: Engraving 575)
G00 X254.0235 Y15.5516 Z8.0000 F4000
G00 Z0.5000 F
G01 Z0.0000 F240
G01 Z-1.0000
G01 Y28.2516 F2400
G01 X228.6235
G00 Z8.0000 F


(No. 498: Engraving 528)
G00 X266.7235 Y28.2516 Z8.0000 F4000
G00 Z0.5000 F
G01 Z0.0000 F240
G01 Z-1.0000
G01 Y40.9516 F2400
G00 Z8.0000 F


(No. 499: Engraving 529)
G00 X279.4235 Y40.9516 Z8.0000 F4000
G00 Z0.5000 F
G01 Z0.0000 F240
G01 Z-1.0000
G01 Y53.6516 F2400
G01 X254.0235
G00 Z8.0000 F


(No. 500: Engraving 614)
G00 X292.1235 Y53.6516 Z8.0000 F4000
G00 Z0.5000 F
G01 Z0.0000 F240
G01 Z-1.0000
G01 Y66.3516 F2400
G00 Z8.0000 F


(No. 501: Engraving 615)
G00 X304.8235 Y66.3516 Z8.0000 F4000
G00 Z0.5000 F
G01 Z0.0000 F240
G01 Z-1.0000
G01 Y79.0516 F2400
G01 X279.4235
G00 Z8.0000 F


(No. 502: Engraving 612)
G00 X317.5235 Y79.0516 Z8.0000 F4000
G00 Z0.5000 F
G01 Z0.0000 F240
G01 Z-1.0000
G01 Y91.7516 F2400
G00 Z8.0000 F


(No. 503: Engraving 386)
G00 X330.2235 Y91.7516 Z8.0000 F4000
G00 Z0.5000 F
G01 Z0.0000 F240
G01 Z-1.0000
G01 X-330.1765 F2400
G01 Y104.4516
G01 X-304.7765
G01 Y91.7516
G00 Z8.0000 F


(No. 504: Engraving 576)
G00 X266.7235 Y2.8516 Z8.0000 F4000
G00 Z0.5000 F
G01 Z0.0000 F240
G01 Z-1.0000
G01 Y15.5516 F2400
G00 Z8.0000 F


(No. 505: Engraving 577)
G00 X279.4235 Y15.5516 Z8.0000 F4000
G00 Z0.5000 F
G01 Z0.0000 F240
G01 Z-1.0000
G01 Y28.2516 F2400
G01 X254.0235
G00 Z8.0000 F


(No. 506: Engraving 618)
G00 X292.1235 Y28.2516 Z8.0000 F4000
G00 Z0.5000 F
G01 Z0.0000 F240
G01 Z-1.0000
G01 Y40.9516 F2400
G00 Z8.0000 F


(No. 507: Engraving 619)
G00 X304.8235 Y40.9516 Z8.0000 F4000
G00 Z0.5000 F
G01 Z0.0000 F240
G01 Z-1.0000
G01 Y53.6516 F2400
G01 X279.4235
G00 Z8.0000 F


(No. 508: Engraving 616)
G00 X317.5235 Y53.6516 Z8.0000 F4000
G00 Z0.5000 F
G01 Z0.0000 F240
G01 Z-1.0000
G01 Y66.3516 F2400
G00 Z8.0000 F


(No. 509: Engraving 434)
G00 X330.2235 Y66.3516 Z8.0000 F4000
G00 Z0.5000 F
G01 Z0.0000 F240
G01 Z-1.0000
G01 X-330.1765 F2400
G01 Y79.0516
G01 X-304.7765
G01 Y66.3516
G00 Z8.0000 F


(No. 510: Engraving 622)
G00 X292.1235 Y2.8516 Z8.0000 F4000
G00 Z0.5000 F
G01 Z0.0000 F240
G01 Z-1.0000
G01 Y15.5516 F2400
G00 Z8.0000 F


(No. 511: Engraving 623)
G00 X304.8235 Y15.5516 Z8.0000 F4000
G00 Z0.5000 F
G01 Z0.0000 F240
G01 Z-1.0000
G01 Y28.2516 F2400
G01 X279.4235
G00 Z8.0000 F


(No. 512: Engraving 620)
G00 X317.5235 Y28.2516 Z8.0000 F4000
G00 Z0.5000 F
G01 Z0.0000 F240
G01 Z-1.0000
G01 Y40.9516 F2400
G00 Z8.0000 F


(No. 513: Engraving 482)
G00 X330.2235 Y40.9516 Z8.0000 F4000
G00 Z0.5000 F
G01 Z0.0000 F240
G01 Z-1.0000
G01 X-330.1765 F2400
G01 Y53.6516
G01 X-304.7765
G01 Y40.9516
G00 Z8.0000 F


(No. 514: Engraving 624)
G00 X317.5235 Y2.8516 Z8.0000 F4000
G00 Z0.5000 F
G01 Z0.0000 F240
G01 Z-1.0000
G01 Y15.5516 F2400
G00 Z8.0000 F


(No. 515: Engraving 530)
G00 X330.2235 Y15.5516 Z8.0000 F4000
G00 Z0.5000 F
G01 Z0.0000 F240
G01 Z-1.0000
G01 X-330.1765 F2400
G01 Y28.2516
G01 X-304.7765
G01 Y15.5516
G00 Z8.0000 F


(No. 516: Engraving 625)
G00 X330.2235 Y28.2516 Z8.0000 F4000
G00 Z0.5000 F
G01 Z0.0000 F240
G01 Z-1.0000
G01 X304.8235 F2400
G00 Z8.0000 F


(No. 517: Engraving 621)
G00 X330.2235 Y53.6516 Z8.0000 F4000
G00 Z0.5000 F
G01 Z0.0000 F240
G01 Z-1.0000
G01 X304.8235 F2400
G00 Z8.0000 F


(No. 518: Engraving 617)
G00 X330.2235 Y79.0516 Z8.0000 F4000
G00 Z0.5000 F
G01 Z0.0000 F240
G01 Z-1.0000
G01 X304.8235 F2400
G00 Z8.0000 F


(No. 519: Engraving 613)
G00 X330.2235 Y104.4516 Z8.0000 F4000
G00 Z0.5000 F
G01 Z0.0000 F240
G01 Z-1.0000
G01 X304.8235 F2400
G00 Z8.0000 F


(No. 520: Engraving 609)
G00 X330.2235 Y129.8516 Z8.0000 F4000
G00 Z0.5000 F
G01 Z0.0000 F240
G01 Z-1.0000
G01 X304.8235 F2400
G00 Z8.0000 F


(No. 521: Engraving 605)
G00 X330.2235 Y155.2516 Z8.0000 F4000
G00 Z0.5000 F
G01 Z0.0000 F240
G01 Z-1.0000
G01 X304.8235 F2400
G00 Z8.0000 F


(No. 522: Engraving 601)
G00 X330.2235 Y180.6516 Z8.0000 F4000
G00 Z0.5000 F
G01 Z0.0000 F240
G01 Z-1.0000
G01 X304.8235 F2400
G00 Z8.0000 F


(No. 523: Engraving 597)
G00 X330.2235 Y206.0516 Z8.0000 F4000
G00 Z0.5000 F
G01 Z0.0000 F240
G01 Z-1.0000
G01 X304.8235 F2400
G00 Z8.0000 F


(No. 524: Engraving 593)
G00 X330.2235 Y231.4516 Z8.0000 F4000
G00 Z0.5000 F
G01 Z0.0000 F240
G01 Z-1.0000
G01 X304.8235 F2400
G00 Z8.0000 F


(No. 525: Engraving 589)
G00 X330.2235 Y256.8516 Z8.0000 F4000
G00 Z0.5000 F
G01 Z0.0000 F240
G01 Z-1.0000
G01 X304.8235 F2400
G00 Z8.0000 F


(No. 526: Engraving 580)
G00 X317.5235 Y282.2516 Z8.0000 F4000
G00 Z0.5000 F
G01 Z0.0000 F240
G01 Z-1.0000
G01 Y294.9516 F2400
G00 Z8.0000 F


(No. 527: Engraving 3)
G00 X330.2235 Y294.9516 Z8.0000 F4000
G00 Z0.5000 F
G01 Z0.0000 F240
G01 Z-1.0000
G01 X-304.7765 F2400
G00 Z8.0000 F


(No. 528: Engraving 581)
G00 X330.2235 Y307.6516 Z8.0000 F4000
G00 Z0.5000 F
G01 Z0.0000 F240
G01 Z-1.0000
G01 X304.8235 F2400
G00 Z8.0000 F


(No. 529: Engraving 585)
G00 X330.2235 Y282.2516 Z8.0000 F4000
G00 Z0.5000 F
G01 Z0.0000 F240
G01 Z-1.0000
G01 X304.8235 F2400
G00 Z8.0000 F
G00 X0.0000 Y0.0000 F4000

M05
M30
